; generated by Slic3r 1.2.9 on 2019-10-05 at 11:36:42

; external perimeters extrusion width = 0.40mm
; perimeters extrusion width = 0.62mm
; infill extrusion width = 0.33mm
; solid infill extrusion width = 0.62mm
; top infill extrusion width = 0.20mm

M106 S256; Turn on fan to 100% power
M104 S140; turn on extruder temperature at S value
M140 S60; turn on bed temperature at S value
G28; home all axes
M84; disable motors
G1 Z15 F15000; have Z move to 20mm at 15000 mm/min
M190 S55; turn on bed temperature at S value and wait
M140 S55; turn on bed temperature at S value (printing temperature)
M109 S200; turn on extruder temperature at S value and wait (printing temperature)
M104 S200; turn on extruder temperature at S value
G1 Z0 F12000; move Z back to home
G21 ; set units to millimeters
G90 ; use absolute coordinates
M82 ; use absolute distances for extrusion
G92 E0
M106 S255
;Layer change
G1 E-6.00000 F1800.00000
G92 E0
G1 Z0.300 F9000.000
G1 X80.774 Y10.600 F9000.000
G1 E6.00000 F1800.00000
G1 X81.166 Y9.290 E6.06727 F600.000
G1 X82.212 Y8.411 E6.13455
G1 X83.160 Y8.214 E6.18218
G1 X113.160 Y8.214 E7.65863
G1 X114.470 Y8.606 E7.72591
G1 X115.349 Y9.652 E7.79318 F600.000
G1 X115.546 Y10.600 E7.84081
G1 X115.546 Y30.600 E8.82511
G1 X115.154 Y31.910 E8.89239
G1 X114.108 Y32.789 E8.95966
G1 X113.160 Y32.986 E9.00729
G1 X83.160 Y32.986 E10.48375
G1 X81.850 Y32.594 E10.55102
G1 X80.971 Y31.548 E10.61829
G1 X80.774 Y30.600 E10.66592
G1 X80.774 Y10.660 E11.64727
G1 E5.64727 F1800.00000
G92 E0
G1 X111.393 Y28.833 F9000.000
G1 E6.00000 F1800.00000
G1 X84.927 Y28.833 E7.30248 F600.000
G1 X84.927 Y12.367 E8.11281
G1 X111.393 Y12.367 E9.41529
G1 X111.393 Y28.773 E10.22266
G1 X111.778 Y29.218 F9000.000
G1 X84.542 Y29.218 E11.56310 F600.000
G1 X84.542 Y11.982 E12.41138
G1 X111.778 Y11.982 E13.75182
G1 X111.778 Y29.158 E14.59715
G1 X112.164 Y29.604 F9000.000
G1 X84.156 Y29.604 E15.97554 F600.000
G1 X84.156 Y11.596 E16.86179
G1 X112.164 Y11.596 E18.24018
G1 X112.164 Y29.544 E19.12347
G1 X112.549 Y29.989 F9000.000
G1 X83.771 Y29.989 E20.53981 F600.000
G1 X83.771 Y11.211 E21.46401
G1 X112.549 Y11.211 E22.88036
G1 X112.549 Y29.929 E23.80161
G1 X112.935 Y30.375 F9000.000
G1 X83.385 Y30.375 E25.25591 F600.000
G1 X83.385 Y10.825 E26.21807
G1 X112.935 Y10.825 E27.67237
G1 X112.935 Y30.315 E28.63157
G1 X112.589 Y30.175 F9000.000
G1 X111.109 Y12.855 F9000.000
G1 X110.905 Y12.651 E28.64591 F600.000
G1 X110.353 Y12.651 E28.67339
G1 X111.109 Y13.407 E28.72660
G1 X111.109 Y13.959 E28.75408
G1 X109.801 Y12.651 E28.84615
G1 X109.250 Y12.651 E28.87363
G1 X111.109 Y14.510 E29.00457
G1 X111.109 Y15.062 E29.03205
G1 X108.698 Y12.651 E29.20185
G1 X108.146 Y12.651 E29.22933
G1 X111.109 Y15.614 E29.43800
G1 X111.109 Y16.166 E29.46548
G1 X107.594 Y12.651 E29.71301
G1 X107.042 Y12.651 E29.74049
G1 X111.109 Y16.718 E30.02689
G1 X111.109 Y17.270 E30.05437
G1 X106.490 Y12.651 E30.37963
G1 X105.939 Y12.651 E30.40711
G1 X111.109 Y17.821 E30.77124
G1 X111.109 Y18.373 E30.79872
G1 X105.387 Y12.651 E31.20171
G1 X104.835 Y12.651 E31.22919
G1 X111.109 Y18.925 E31.67105
G1 X111.109 Y19.477 E31.69853
G1 X104.283 Y12.651 E32.17925
G1 X103.731 Y12.651 E32.20673
G1 X111.109 Y20.029 E32.72632
G1 X111.109 Y20.581 E32.75380
G1 X103.179 Y12.651 E33.31225
G1 X102.628 Y12.651 E33.33974
G1 X111.109 Y21.132 E33.93705
G1 X111.109 Y21.684 E33.96453
G1 X102.076 Y12.651 E34.60072
G1 X101.524 Y12.651 E34.62820
G1 X111.109 Y22.236 E35.30325
G1 X111.109 Y22.788 E35.33073
G1 X100.972 Y12.651 E36.04464
G1 X100.420 Y12.651 E36.07212
G1 X111.109 Y23.340 E36.82490
G1 X111.109 Y23.892 E36.85238
G1 X99.868 Y12.651 E37.64402
G1 X99.317 Y12.651 E37.67150
G1 X111.109 Y24.443 E38.50201
G1 X111.109 Y24.995 E38.52949
G1 X98.765 Y12.651 E39.39887
G1 X98.213 Y12.651 E39.42635
G1 X111.109 Y25.547 E40.33459
G1 X111.109 Y26.099 E40.36207
G1 X97.661 Y12.651 E41.30917
G1 X97.109 Y12.651 E41.33665
G1 X111.109 Y26.651 E42.32262
G1 X111.109 Y27.203 E42.35010
G1 X96.557 Y12.651 E43.37494
G1 X96.006 Y12.651 E43.40242
G1 X111.109 Y27.754 E44.46612
G1 X111.109 Y28.306 E44.49360
G1 X95.454 Y12.651 E45.59616
G1 X94.902 Y12.651 E45.62365
G1 X110.799 Y28.549 E46.74328
G1 X110.247 Y28.549 E46.77076
G1 X94.350 Y12.651 E47.89040
G1 X93.798 Y12.651 E47.91788
G1 X109.696 Y28.549 E49.03752
G1 X109.144 Y28.549 E49.06500
G1 X93.246 Y12.651 E50.18464
G1 X92.695 Y12.651 E50.21212
G1 X108.592 Y28.549 E51.33176
G1 X108.040 Y28.549 E51.35924
G1 X92.143 Y12.651 E52.47888
G1 X91.591 Y12.651 E52.50636
G1 X107.488 Y28.549 E53.62600
G1 X106.936 Y28.549 E53.65348
G1 X91.039 Y12.651 E54.77312
G1 X90.487 Y12.651 E54.80060
G1 X106.385 Y28.549 E55.92024
G1 X105.833 Y28.549 E55.94772
G1 X89.935 Y12.651 E57.06735
G1 X89.383 Y12.651 E57.09484
G1 X105.281 Y28.549 E58.21447
G1 X104.729 Y28.549 E58.24196
G1 X88.832 Y12.651 E59.36159
G1 X88.280 Y12.651 E59.38907
G1 X104.177 Y28.549 E60.50871
G1 X103.625 Y28.549 E60.53619
G1 X87.728 Y12.651 E61.65583
G1 X87.176 Y12.651 E61.68331
G1 X103.074 Y28.549 E62.80295
G1 X102.522 Y28.549 E62.83043
G1 X86.624 Y12.651 E63.95007
G1 X86.072 Y12.651 E63.97755
G1 X101.970 Y28.549 E65.09719
G1 X101.418 Y28.549 E65.12467
G1 X85.521 Y12.651 E66.24431
G1 X85.211 Y12.894 E66.26388
G1 X100.866 Y28.549 E67.36644
G1 X100.314 Y28.549 E67.39392
G1 X85.211 Y13.446 E68.45762
G1 X85.211 Y13.997 E68.48510
G1 X99.763 Y28.549 E69.50993
G1 X99.211 Y28.549 E69.53741
G1 X85.211 Y14.549 E70.52338
G1 X85.211 Y15.101 E70.55086
G1 X98.659 Y28.549 E71.49796
G1 X98.107 Y28.549 E71.52544
G1 X85.211 Y15.653 E72.43368
G1 X85.211 Y16.205 E72.46116
G1 X97.555 Y28.549 E73.33053
G1 X97.003 Y28.549 E73.35801
G1 X85.211 Y16.757 E74.18851
G1 X85.211 Y17.308 E74.21599
G1 X96.452 Y28.549 E75.00763
G1 X95.900 Y28.549 E75.03512
G1 X85.211 Y17.860 E75.78789
G1 X85.211 Y18.412 E75.81537
G1 X95.348 Y28.549 E76.52928
G1 X94.796 Y28.549 E76.55676
G1 X85.211 Y18.964 E77.23180
G1 X85.211 Y19.516 E77.25929
G1 X94.244 Y28.549 E77.89547
G1 X93.692 Y28.549 E77.92295
G1 X85.211 Y20.068 E78.52026
G1 X85.211 Y20.619 E78.54774
G1 X93.141 Y28.549 E79.10619
G1 X92.589 Y28.549 E79.13367
G1 X85.211 Y21.171 E79.65326
G1 X85.211 Y21.723 E79.68074
G1 X92.037 Y28.549 E80.16145
G1 X91.485 Y28.549 E80.18894
G1 X85.211 Y22.275 E80.63079
G1 X85.211 Y22.827 E80.65827
G1 X90.933 Y28.549 E81.06126
G1 X90.381 Y28.549 E81.08874
G1 X85.211 Y23.379 E81.45286
G1 X85.211 Y23.930 E81.48034
G1 X89.830 Y28.549 E81.80560
G1 X89.278 Y28.549 E81.83308
G1 X85.211 Y24.482 E82.11948
G1 X85.211 Y25.034 E82.14696
G1 X88.726 Y28.549 E82.39448
G1 X88.174 Y28.549 E82.42197
G1 X85.211 Y25.586 E82.63063
G1 X85.211 Y26.138 E82.65811
G1 X87.622 Y28.549 E82.82791
G1 X87.070 Y28.549 E82.85539
G1 X85.211 Y26.690 E82.98632
G1 X85.211 Y27.241 E83.01380
G1 X86.518 Y28.549 E83.10587
G1 X85.967 Y28.549 E83.13335
G1 X85.211 Y27.793 E83.18655
G1 X85.211 Y28.345 E83.21403
G1 X85.415 Y28.549 E83.22837
M104 S205 ; set temperature
M140 S55 ; wait for bed temperature to be reached
;Layer change
G1 E77.22837 F1800.00000
G92 E0
G1 Z0.520 F9000.000
G1 X110.784 Y28.224 F9000.000
G1 E6.00000 F1800.00000
G1 X85.536 Y28.224 E7.34980 F3000.000
G1 X85.536 Y12.976 E8.16500
G1 X110.784 Y12.976 E9.51480
G1 X110.784 Y28.164 E10.32679
G1 X111.356 Y28.796 F9000.000
G1 X84.964 Y28.796 E11.73766 F3000.000
G1 X84.964 Y12.404 E12.61393
G1 X111.356 Y12.404 E14.02481
G1 X111.356 Y28.736 E14.89787
G1 X111.927 Y29.367 F9000.000
G1 X84.393 Y29.367 E16.36981 F3000.000
G1 X84.393 Y11.833 E17.30716
G1 X111.927 Y11.833 E18.77910
G1 X111.927 Y29.307 E19.71324
G1 X112.498 Y29.938 F9000.000
G1 X83.822 Y29.938 E21.24626 F3000.000
G1 X83.822 Y11.262 E22.24467
G1 X112.498 Y11.262 E23.77769
G1 X112.498 Y29.878 E24.77290
G1 X112.960 Y30.400 F9000.000
G1 X83.360 Y30.400 E25.75024 F1800.000
G1 X83.360 Y10.800 E26.39739
G1 X112.960 Y10.800 E27.37473
G1 X112.960 Y30.340 E28.01991
G1 X112.614 Y30.200 F9000.000
G1 X110.072 Y27.794 F9000.000
G1 X110.354 Y27.512 E28.04140 F1800.000
G1 X110.354 Y26.699 E28.08514
G1 X109.259 Y27.794 E28.16850
G1 X108.446 Y27.794 E28.21224
G1 X110.354 Y25.886 E28.35746
G1 X110.354 Y25.073 E28.40121
G1 X107.633 Y27.794 E28.60830
G1 X106.820 Y27.794 E28.65205
G1 X110.354 Y24.260 E28.92100
G1 X110.354 Y23.447 E28.96475
G1 X106.007 Y27.794 E29.29558
G1 X105.194 Y27.794 E29.33932
G1 X110.354 Y22.634 E29.73202
G1 X110.354 Y21.821 E29.77577
G1 X104.381 Y27.794 E30.23033
G1 X103.568 Y27.794 E30.27407
G1 X110.354 Y21.008 E30.79050
G1 X110.354 Y20.195 E30.83425
G1 X102.755 Y27.794 E31.41255
G1 X101.942 Y27.794 E31.45630
G1 X110.354 Y19.382 E32.09646
G1 X110.354 Y18.569 E32.14021
G1 X101.129 Y27.794 E32.84224
G1 X100.316 Y27.794 E32.88599
G1 X110.354 Y17.756 E33.64989
G1 X110.354 Y16.943 E33.69364
G1 X99.503 Y27.794 E34.51941
G1 X98.689 Y27.794 E34.56316
G1 X110.354 Y16.129 E35.45080
G1 X110.354 Y15.316 E35.49454
G1 X97.876 Y27.794 E36.44405
G1 X97.063 Y27.794 E36.48780
G1 X110.354 Y14.503 E37.49917
G1 X110.354 Y13.690 E37.54292
G1 X96.250 Y27.794 E38.61616
G1 X95.437 Y27.794 E38.65991
G1 X109.826 Y13.406 E39.75482
G1 X109.013 Y13.406 E39.79857
G1 X94.624 Y27.794 E40.89348
G1 X93.811 Y27.794 E40.93722
G1 X108.200 Y13.406 E42.03214
G1 X107.387 Y13.406 E42.07588
G1 X92.998 Y27.794 E43.17079
G1 X92.185 Y27.794 E43.21454
G1 X106.574 Y13.406 E44.30945
G1 X105.761 Y13.406 E44.35320
G1 X91.372 Y27.794 E45.44811
G1 X90.559 Y27.794 E45.49186
G1 X104.948 Y13.406 E46.58677
G1 X104.135 Y13.406 E46.63052
G1 X89.746 Y27.794 E47.72543
G1 X88.933 Y27.794 E47.76917
G1 X103.322 Y13.406 E48.86408
G1 X102.509 Y13.406 E48.90783
G1 X88.120 Y27.794 E50.00274
G1 X87.307 Y27.794 E50.04649
G1 X101.696 Y13.406 E51.14140
G1 X100.883 Y13.406 E51.18515
G1 X86.494 Y27.794 E52.28006
G1 X85.966 Y27.510 E52.31235
G1 X100.070 Y13.406 E53.38559
G1 X99.257 Y13.406 E53.42934
G1 X85.966 Y26.697 E54.44071
G1 X85.966 Y25.884 E54.48445
G1 X98.444 Y13.406 E55.43396
G1 X97.630 Y13.406 E55.47770
G1 X85.966 Y25.070 E56.36534
G1 X85.966 Y24.257 E56.40909
G1 X96.817 Y13.406 E57.23485
G1 X96.004 Y13.406 E57.27860
G1 X85.966 Y23.444 E58.04250
G1 X85.966 Y22.631 E58.08625
G1 X95.191 Y13.406 E58.78828
G1 X94.378 Y13.406 E58.83202
G1 X85.966 Y21.818 E59.47219
G1 X85.966 Y21.005 E59.51593
G1 X93.565 Y13.406 E60.09423
G1 X92.752 Y13.406 E60.13798
G1 X85.966 Y20.192 E60.65440
G1 X85.966 Y19.379 E60.69815
G1 X91.939 Y13.406 E61.15271
G1 X91.126 Y13.406 E61.19645
G1 X85.966 Y18.566 E61.58914
G1 X85.966 Y17.753 E61.63289
G1 X90.313 Y13.406 E61.96371
G1 X89.500 Y13.406 E62.00746
G1 X85.966 Y16.940 E62.27641
G1 X85.966 Y16.127 E62.32016
G1 X88.687 Y13.406 E62.52725
G1 X87.874 Y13.406 E62.57099
G1 X85.966 Y15.314 E62.71621
G1 X85.966 Y14.501 E62.75996
G1 X87.061 Y13.406 E62.84331
G1 X86.248 Y13.406 E62.88705
G1 X85.966 Y13.688 E62.90854
;Layer change
G1 E56.90854 F1800.00000
G92 E0
G1 Z0.740 F9000.000
G1 X110.784 Y28.224 F9000.000
G1 E6.00000 F1800.00000
G1 X85.536 Y28.224 E7.34980 F3000.000
G1 X85.536 Y12.976 E8.16500
G1 X110.784 Y12.976 E9.51480
G1 X110.784 Y28.164 E10.32679
G1 X111.356 Y28.796 F9000.000
G1 X84.964 Y28.796 E11.73766 F3000.000
G1 X84.964 Y12.404 E12.61393
G1 X111.356 Y12.404 E14.02481
G1 X111.356 Y28.736 E14.89787
G1 X111.927 Y29.367 F9000.000
G1 X84.393 Y29.367 E16.36981 F3000.000
G1 X84.393 Y11.833 E17.30716
G1 X111.927 Y11.833 E18.77910
G1 X111.927 Y29.307 E19.71324
G1 X112.498 Y29.938 F9000.000
G1 X83.822 Y29.938 E21.24626 F3000.000
G1 X83.822 Y11.262 E22.24467
G1 X112.498 Y11.262 E23.77769
G1 X112.498 Y29.878 E24.77290
G1 X112.960 Y30.400 F9000.000
G1 X83.360 Y30.400 E25.75024 F1800.000
G1 X83.360 Y10.800 E26.39739
G1 X112.960 Y10.800 E27.37473
G1 X112.960 Y30.340 E28.01991
G1 X112.614 Y30.200 F9000.000
G1 X110.354 Y13.688 F9000.000
G1 X110.072 Y13.406 E28.04140 F1800.000
G1 X109.259 Y13.406 E28.08514
G1 X110.354 Y14.501 E28.16850
G1 X110.354 Y15.314 E28.21224
G1 X108.446 Y13.406 E28.35746
G1 X107.633 Y13.406 E28.40121
G1 X110.354 Y16.127 E28.60830
G1 X110.354 Y16.940 E28.65205
G1 X106.820 Y13.406 E28.92100
G1 X106.007 Y13.406 E28.96475
G1 X110.354 Y17.753 E29.29558
G1 X110.354 Y18.566 E29.33932
G1 X105.194 Y13.406 E29.73202
G1 X104.381 Y13.406 E29.77577
G1 X110.354 Y19.379 E30.23033
G1 X110.354 Y20.192 E30.27407
G1 X103.568 Y13.406 E30.79050
G1 X102.755 Y13.406 E30.83425
G1 X110.354 Y21.005 E31.41255
G1 X110.354 Y21.818 E31.45630
G1 X101.942 Y13.406 E32.09646
G1 X101.129 Y13.406 E32.14021
G1 X110.354 Y22.631 E32.84224
G1 X110.354 Y23.444 E32.88599
G1 X100.316 Y13.406 E33.64989
G1 X99.503 Y13.406 E33.69364
G1 X110.354 Y24.257 E34.51941
G1 X110.354 Y25.071 E34.56316
G1 X98.689 Y13.406 E35.45080
G1 X97.876 Y13.406 E35.49454
G1 X110.354 Y25.884 E36.44405
G1 X110.354 Y26.697 E36.48780
G1 X97.063 Y13.406 E37.49917
G1 X96.250 Y13.406 E37.54292
G1 X110.354 Y27.510 E38.61616
G1 X109.826 Y27.794 E38.64845
G1 X95.437 Y13.406 E39.74336
G1 X94.624 Y13.406 E39.78711
G1 X109.013 Y27.794 E40.88202
G1 X108.200 Y27.794 E40.92577
G1 X93.811 Y13.406 E42.02068
G1 X92.998 Y13.406 E42.06443
G1 X107.387 Y27.794 E43.15934
G1 X106.574 Y27.794 E43.20309
G1 X92.185 Y13.406 E44.29800
G1 X91.372 Y13.406 E44.34174
G1 X105.761 Y27.794 E45.43666
G1 X104.948 Y27.794 E45.48040
G1 X90.559 Y13.406 E46.57531
G1 X89.746 Y13.406 E46.61906
G1 X104.135 Y27.794 E47.71397
G1 X103.322 Y27.794 E47.75772
G1 X88.933 Y13.406 E48.85263
G1 X88.120 Y13.406 E48.89638
G1 X102.509 Y27.794 E49.99129
G1 X101.696 Y27.794 E50.03504
G1 X87.307 Y13.406 E51.12995
G1 X86.494 Y13.406 E51.17369
G1 X100.883 Y27.794 E52.26860
G1 X100.070 Y27.794 E52.31235
G1 X85.966 Y13.690 E53.38559
G1 X85.966 Y14.503 E53.42934
G1 X99.257 Y27.794 E54.44071
G1 X98.444 Y27.794 E54.48446
G1 X85.966 Y15.316 E55.43396
G1 X85.966 Y16.130 E55.47771
G1 X97.630 Y27.794 E56.36534
G1 X96.817 Y27.794 E56.40909
G1 X85.966 Y16.943 E57.23486
G1 X85.966 Y17.756 E57.27860
G1 X96.004 Y27.794 E58.04250
G1 X95.191 Y27.794 E58.08625
G1 X85.966 Y18.569 E58.78828
G1 X85.966 Y19.382 E58.83203
G1 X94.378 Y27.794 E59.47219
G1 X93.565 Y27.794 E59.51594
G1 X85.966 Y20.195 E60.09423
G1 X85.966 Y21.008 E60.13798
G1 X92.752 Y27.794 E60.65440
G1 X91.939 Y27.794 E60.69815
G1 X85.966 Y21.821 E61.15271
G1 X85.966 Y22.634 E61.19646
G1 X91.126 Y27.794 E61.58915
G1 X90.313 Y27.794 E61.63289
G1 X85.966 Y23.447 E61.96371
G1 X85.966 Y24.260 E62.00746
G1 X89.500 Y27.794 E62.27641
G1 X88.687 Y27.794 E62.32016
G1 X85.966 Y25.073 E62.52725
G1 X85.966 Y25.886 E62.57099
G1 X87.874 Y27.794 E62.71621
G1 X87.061 Y27.794 E62.75996
G1 X85.966 Y26.699 E62.84331
G1 X85.966 Y27.512 E62.88706
G1 X86.248 Y27.794 E62.90854
;Layer change
G1 E56.90854 F1800.00000
G92 E0
G1 Z0.960 F9000.000
G1 X110.784 Y28.224 F9000.000
G1 E6.00000 F1800.00000
G1 X85.536 Y28.224 E7.34980 F3000.000
G1 X85.536 Y12.976 E8.16500
G1 X110.784 Y12.976 E9.51480
G1 X110.784 Y28.164 E10.32679
G1 X111.356 Y28.796 F9000.000
G1 X84.964 Y28.796 E11.73766 F3000.000
G1 X84.964 Y12.404 E12.61393
G1 X111.356 Y12.404 E14.02481
G1 X111.356 Y28.736 E14.89787
G1 X111.927 Y29.367 F9000.000
G1 X84.393 Y29.367 E16.36981 F3000.000
G1 X84.393 Y11.833 E17.30716
G1 X111.927 Y11.833 E18.77910
G1 X111.927 Y29.307 E19.71324
G1 X112.498 Y29.938 F9000.000
G1 X83.822 Y29.938 E21.24626 F3000.000
G1 X83.822 Y11.262 E22.24467
G1 X112.498 Y11.262 E23.77769
G1 X112.498 Y29.878 E24.77290
G1 X112.960 Y30.400 F9000.000
G1 X83.360 Y30.400 E25.75024 F1800.000
G1 X83.360 Y10.800 E26.39739
G1 X112.960 Y10.800 E27.37473
G1 X112.960 Y30.340 E28.01991
G1 X112.614 Y30.200 F9000.000
G1 X85.963 Y27.593 F9000.000
G1 X86.016 Y27.539 E28.02314 F6000.000
G1 X86.902 Y27.539 E28.06105
G1 X86.959 Y27.595 E28.06446
G1 X87.845 Y27.595 E28.10236
G1 X87.901 Y27.539 E28.10577
G1 X88.788 Y27.539 E28.14367
G1 X88.844 Y27.595 E28.14708
G1 X89.730 Y27.595 E28.18498
G1 X89.787 Y27.539 E28.18839
G1 X90.673 Y27.539 E28.22630
G1 X90.729 Y27.595 E28.22970
G1 X91.615 Y27.595 E28.26761
G1 X91.672 Y27.539 E28.27101
G1 X92.558 Y27.539 E28.30892
G1 X92.614 Y27.595 E28.31232
G1 X93.501 Y27.595 E28.35023
G1 X93.557 Y27.539 E28.35363
G1 X94.443 Y27.539 E28.39154
G1 X94.500 Y27.595 E28.39495
G1 X95.386 Y27.595 E28.43285
G1 X95.442 Y27.539 E28.43626
G1 X96.329 Y27.539 E28.47416
