; generated by Slic3r 1.2.9 on 2019-10-02 at 09:19:56

; external perimeters extrusion width = 0.40mm
; perimeters extrusion width = 0.62mm
; infill extrusion width = 0.33mm
; solid infill extrusion width = 0.62mm
; top infill extrusion width = 0.20mm
; support material extrusion width = 0.40mm

M106 S256; Turn on fan to 100% power
M104 S140; turn on extruder temperature at S value
M140 S60; turn on bed temperature at S value
G28; home all axes
M84; disable motors
G1 Z15 F15000; have Z move to 20mm at 15000 mm/min
M190 S55; turn on bed temperature at S value and wait
M140 S55; turn on bed temperature at S value (printing temperature)
M109 S200; turn on extruder temperature at S value and wait (printing temperature)
M104 S200; turn on extruder temperature at S value
G1 Z0 F12000; move Z back to home
G21 ; set units to millimeters
G90 ; use absolute coordinates
M82 ; use absolute distances for extrusion
G92 E0
M106 S255
;Layer change
G1 E-6.00000 F1800.00000
G92 E0
G1 Z0.300 F9000.000
G1 X77.658 Y26.054 F9000.000
G1 E6.00000 F1800.00000
G1 X78.408 Y24.242 E6.09654 F600.000
G1 X78.578 Y23.909 E6.11496
G1 X79.603 Y22.236 E6.21150
G1 X79.823 Y21.933 E6.22992
G1 X81.097 Y20.442 E6.32646
G1 X81.362 Y20.177 E6.34488
G1 X82.853 Y18.903 E6.44142
G1 X83.156 Y18.683 E6.45983
G1 X84.829 Y17.658 E6.55637
G1 X85.162 Y17.488 E6.57479
G1 X87.057 Y16.705 E6.67572
G1 X108.920 Y8.593 E7.82337
G1 X109.750 Y8.444 E7.86486
G1 X111.750 Y8.444 E7.96329
G1 X113.060 Y8.836 E8.03057
G1 X113.939 Y9.882 E8.09784 F600.000
G1 X114.136 Y10.830 E8.14547
G1 X114.136 Y50.830 E10.11408
G1 X111.625 Y78.050 E11.45939
G1 X111.115 Y79.318 E11.52666
G1 X109.992 Y80.097 E11.59394
G1 X109.250 Y80.216 E11.63091
G1 X79.250 Y80.216 E13.10736
G1 X77.940 Y79.824 E13.17463
G1 X77.061 Y78.778 E13.24191
G1 X76.864 Y77.830 E13.28954
G1 X76.864 Y30.830 E15.60265
G1 X77.026 Y28.687 E15.70840
G1 X77.084 Y28.318 E15.72682
G1 X77.542 Y26.410 E15.82335
G1 X77.639 Y26.111 E15.83882
G1 E9.83882 F1800.00000
G92 E0
G1 X107.483 Y59.597 F9000.000
G1 E6.00000 F1800.00000
G1 X107.483 Y76.063 E6.81033 F600.000
G1 X81.017 Y76.063 E8.11281
G1 X81.017 Y59.597 E8.92314
G1 X107.423 Y59.597 E10.22266
G1 X107.868 Y59.212 F9000.000
G1 X107.868 Y76.448 E11.07095 F600.000
G1 X80.632 Y76.448 E12.41138
G1 X80.632 Y59.212 E13.25967
G1 X107.808 Y59.212 E14.59715
G1 X108.254 Y58.826 F9000.000
G1 X108.254 Y76.834 E15.48339 F600.000
G1 X80.246 Y76.834 E16.86179
G1 X80.246 Y58.826 E17.74803
G1 X108.194 Y58.826 E19.12347
G1 X108.639 Y58.441 F9000.000
G1 X108.639 Y77.219 E20.04766 F600.000
G1 X79.861 Y77.219 E21.46401
G1 X79.861 Y58.441 E22.38821
G1 X108.579 Y58.441 E23.80161
G1 X109.025 Y58.055 F9000.000
G1 X109.025 Y77.605 E24.76376 F600.000
G1 X79.475 Y77.605 E26.21807
G1 X79.475 Y58.055 E27.18022
G1 X108.965 Y58.055 E28.63157
G1 X108.825 Y58.401 F9000.000
G1 X107.199 Y60.085 F9000.000
G1 X106.995 Y59.881 E28.64591 F600.000
G1 X106.443 Y59.881 E28.67339
G1 X107.199 Y60.637 E28.72660
G1 X107.199 Y61.189 E28.75408
G1 X105.891 Y59.881 E28.84615
G1 X105.340 Y59.881 E28.87363
G1 X107.199 Y61.740 E29.00457
G1 X107.199 Y62.292 E29.03205
G1 X104.788 Y59.881 E29.20185
G1 X104.236 Y59.881 E29.22933
G1 X107.199 Y62.844 E29.43800
G1 X107.199 Y63.396 E29.46548
G1 X103.684 Y59.881 E29.71301
G1 X103.132 Y59.881 E29.74049
G1 X107.199 Y63.948 E30.02689
G1 X107.199 Y64.500 E30.05437
G1 X102.580 Y59.881 E30.37963
G1 X102.029 Y59.881 E30.40711
G1 X107.199 Y65.051 E30.77124
G1 X107.199 Y65.603 E30.79872
G1 X101.477 Y59.881 E31.20171
G1 X100.925 Y59.881 E31.22919
G1 X107.199 Y66.155 E31.67105
G1 X107.199 Y66.707 E31.69853
G1 X100.373 Y59.881 E32.17925
G1 X99.821 Y59.881 E32.20673
G1 X107.199 Y67.259 E32.72632
G1 X107.199 Y67.811 E32.75380
G1 X99.269 Y59.881 E33.31225
G1 X98.718 Y59.881 E33.33974
G1 X107.199 Y68.362 E33.93705
G1 X107.199 Y68.914 E33.96453
G1 X98.166 Y59.881 E34.60072
G1 X97.614 Y59.881 E34.62820
G1 X107.199 Y69.466 E35.30324
G1 X107.199 Y70.018 E35.33073
G1 X97.062 Y59.881 E36.04464
G1 X96.510 Y59.881 E36.07212
G1 X107.199 Y70.570 E36.82490
G1 X107.199 Y71.122 E36.85238
G1 X95.958 Y59.881 E37.64402
G1 X95.407 Y59.881 E37.67150
G1 X107.199 Y71.673 E38.50201
G1 X107.199 Y72.225 E38.52949
G1 X94.855 Y59.881 E39.39887
G1 X94.303 Y59.881 E39.42635
G1 X107.199 Y72.777 E40.33459
G1 X107.199 Y73.329 E40.36207
G1 X93.751 Y59.881 E41.30917
G1 X93.199 Y59.881 E41.33665
G1 X107.199 Y73.881 E42.32262
G1 X107.199 Y74.433 E42.35010
G1 X92.647 Y59.881 E43.37494
G1 X92.096 Y59.881 E43.40242
G1 X107.199 Y74.984 E44.46612
G1 X107.199 Y75.536 E44.49360
G1 X91.544 Y59.881 E45.59616
G1 X90.992 Y59.881 E45.62364
G1 X106.889 Y75.779 E46.74328
G1 X106.337 Y75.779 E46.77076
G1 X90.440 Y59.881 E47.89040
G1 X89.888 Y59.881 E47.91788
G1 X105.786 Y75.779 E49.03752
G1 X105.234 Y75.779 E49.06500
G1 X89.336 Y59.881 E50.18464
G1 X88.785 Y59.881 E50.21212
G1 X104.682 Y75.779 E51.33176
G1 X104.130 Y75.779 E51.35924
G1 X88.233 Y59.881 E52.47888
G1 X87.681 Y59.881 E52.50636
G1 X103.578 Y75.779 E53.62600
G1 X103.026 Y75.779 E53.65348
G1 X87.129 Y59.881 E54.77312
G1 X86.577 Y59.881 E54.80060
G1 X102.475 Y75.779 E55.92023
G1 X101.923 Y75.779 E55.94772
G1 X86.025 Y59.881 E57.06735
G1 X85.473 Y59.881 E57.09484
G1 X101.371 Y75.779 E58.21447
G1 X100.819 Y75.779 E58.24195
G1 X84.922 Y59.881 E59.36159
G1 X84.370 Y59.881 E59.38907
G1 X100.267 Y75.779 E60.50871
G1 X99.715 Y75.779 E60.53619
G1 X83.818 Y59.881 E61.65583
G1 X83.266 Y59.881 E61.68331
G1 X99.164 Y75.779 E62.80295
G1 X98.612 Y75.779 E62.83043
G1 X82.714 Y59.881 E63.95007
G1 X82.162 Y59.881 E63.97755
G1 X98.060 Y75.779 E65.09719
G1 X97.508 Y75.779 E65.12467
G1 X81.611 Y59.881 E66.24431
G1 X81.301 Y60.124 E66.26388
G1 X96.956 Y75.779 E67.36644
G1 X96.404 Y75.779 E67.39392
G1 X81.301 Y60.676 E68.45762
G1 X81.301 Y61.227 E68.48510
G1 X95.853 Y75.779 E69.50993
G1 X95.301 Y75.779 E69.53741
G1 X81.301 Y61.779 E70.52338
G1 X81.301 Y62.331 E70.55086
G1 X94.749 Y75.779 E71.49796
G1 X94.197 Y75.779 E71.52544
G1 X81.301 Y62.883 E72.43367
G1 X81.301 Y63.435 E72.46116
G1 X93.645 Y75.779 E73.33053
G1 X93.093 Y75.779 E73.35801
G1 X81.301 Y63.987 E74.18851
G1 X81.301 Y64.538 E74.21599
G1 X92.542 Y75.779 E75.00763
G1 X91.990 Y75.779 E75.03511
G1 X81.301 Y65.090 E75.78789
G1 X81.301 Y65.642 E75.81537
G1 X91.438 Y75.779 E76.52928
G1 X90.886 Y75.779 E76.55676
G1 X81.301 Y66.194 E77.23180
G1 X81.301 Y66.746 E77.25929
G1 X90.334 Y75.779 E77.89546
G1 X89.782 Y75.779 E77.92295
G1 X81.301 Y67.298 E78.52026
G1 X81.301 Y67.849 E78.54774
G1 X89.231 Y75.779 E79.10619
G1 X88.679 Y75.779 E79.13367
G1 X81.301 Y68.401 E79.65325
G1 X81.301 Y68.953 E79.68074
G1 X88.127 Y75.779 E80.16145
G1 X87.575 Y75.779 E80.18894
G1 X81.301 Y69.505 E80.63079
G1 X81.301 Y70.057 E80.65827
G1 X87.023 Y75.779 E81.06126
G1 X86.471 Y75.779 E81.08874
G1 X81.301 Y70.609 E81.45286
G1 X81.301 Y71.160 E81.48034
G1 X85.920 Y75.779 E81.80560
G1 X85.368 Y75.779 E81.83308
G1 X81.301 Y71.712 E82.11947
G1 X81.301 Y72.264 E82.14696
G1 X84.816 Y75.779 E82.39448
G1 X84.264 Y75.779 E82.42197
G1 X81.301 Y72.816 E82.63063
G1 X81.301 Y73.368 E82.65811
G1 X83.712 Y75.779 E82.82791
G1 X83.160 Y75.779 E82.85539
G1 X81.301 Y73.920 E82.98632
G1 X81.301 Y74.471 E83.01380
G1 X82.608 Y75.779 E83.10587
G1 X82.057 Y75.779 E83.13335
G1 X81.301 Y75.023 E83.18655
G1 X81.301 Y75.575 E83.21403
G1 X81.505 Y75.779 E83.22837
G1 E77.22837 F1800.00000
G92 E0
G1 X94.111 Y41.441 F9000.000
G1 E6.00000 F1800.00000
G1 X89.389 Y41.441 E6.23236 F600.000
G1 X89.389 Y38.219 E6.39089
G1 X94.111 Y38.219 E6.62325
G1 X94.111 Y41.381 E6.77883
G1 X93.725 Y41.055 F9000.000
G1 X89.775 Y41.055 E6.97323 F600.000
G1 X89.775 Y38.605 E7.09380
G1 X93.725 Y38.605 E7.28820
G1 X93.725 Y40.995 E7.40583
G1 X93.725 Y41.455 F9000.000
G1 E1.40583 F1800.00000
G92 E0
G1 X94.111 Y23.441 F9000.000
G1 E6.00000 F1800.00000
G1 X89.389 Y23.441 E6.23236 F600.000
G1 X89.389 Y20.219 E6.39089
G1 X94.111 Y20.219 E6.62325
G1 X94.111 Y23.381 E6.77883
G1 X93.725 Y23.055 F9000.000
G1 X89.775 Y23.055 E6.97323 F600.000
G1 X89.775 Y20.605 E7.09380
G1 X93.725 Y20.605 E7.28820
G1 X93.725 Y22.995 E7.40583
G1 X93.725 Y23.455 F9000.000
G1 X93.064 Y25.741 F9000.000
G1 X93.403 Y25.825 E7.42301 F600.000
G1 X94.144 Y26.132 E7.46248
G1 X94.849 Y26.564 E7.50319
G1 X95.478 Y27.101 E7.54391
G1 X96.016 Y27.731 E7.58464
G1 X96.448 Y28.436 E7.62536
G1 X96.765 Y29.201 E7.66608
G1 X96.958 Y30.005 E7.70680
G1 X97.023 Y30.830 E7.74752
G1 X96.958 Y31.655 E7.78825
G1 X96.765 Y32.459 E7.82897
G1 X96.448 Y33.224 E7.86969
G1 X96.016 Y33.929 E7.91041
G1 X95.478 Y34.559 E7.95114
G1 X94.849 Y35.096 E7.99186
G1 X94.144 Y35.528 E8.03257
G1 X93.379 Y35.845 E8.07329
G1 X92.570 Y36.039 E8.11427
G1 X91.724 Y36.101 E8.15599
G1 X90.925 Y36.038 E8.19545
G1 X90.121 Y35.845 E8.23617
G1 X89.356 Y35.528 E8.27690
G1 X88.651 Y35.096 E8.31761
G1 X88.022 Y34.559 E8.35833
G1 X87.484 Y33.929 E8.39906
G1 X87.052 Y33.224 E8.43978
G1 X86.735 Y32.459 E8.48050
G1 X86.542 Y31.655 E8.52122
G1 X86.477 Y30.830 E8.56194
G1 X86.542 Y30.005 E8.60266
G1 X86.735 Y29.201 E8.64339
G1 X87.052 Y28.436 E8.68411
G1 X87.484 Y27.731 E8.72483
G1 X88.022 Y27.101 E8.76556
G1 X88.651 Y26.564 E8.80628
G1 X89.356 Y26.132 E8.84699
G1 X90.114 Y25.818 E8.88738
G1 X90.893 Y25.625 E8.92687
G1 X91.750 Y25.557 E8.96918 F600.000
G1 X92.580 Y25.622 E9.01014
G1 X93.006 Y25.727 E9.03173
G1 X92.972 Y26.116 F9000.000
G1 X93.283 Y26.192 E9.04748 F600.000
G1 X93.968 Y26.476 E9.08401
G1 X94.622 Y26.877 E9.12173
G1 X95.205 Y27.375 E9.15947
G1 X95.703 Y27.958 E9.19721
G1 X96.104 Y28.612 E9.23494
G1 X96.397 Y29.320 E9.27267
G1 X96.576 Y30.066 E9.31041
G1 X96.636 Y30.830 E9.34814
G1 X96.576 Y31.594 E9.38588
G1 X96.397 Y32.340 E9.42361
G1 X96.104 Y33.048 E9.46134
G1 X95.703 Y33.702 E9.49908
G1 X95.205 Y34.285 E9.53682
G1 X94.622 Y34.783 E9.57455
G1 X93.968 Y35.184 E9.61228
G1 X93.260 Y35.477 E9.65002
G1 X92.510 Y35.657 E9.68795
G1 X91.726 Y35.714 E9.72668
G1 X90.986 Y35.656 E9.76321
G1 X90.240 Y35.477 E9.80094
G1 X89.532 Y35.184 E9.83868
G1 X88.878 Y34.783 E9.87641
G1 X88.295 Y34.285 E9.91414
G1 X87.797 Y33.702 E9.95188
G1 X87.396 Y33.048 E9.98962
G1 X87.103 Y32.340 E10.02735
G1 X86.924 Y31.594 E10.06508
G1 X86.864 Y30.830 E10.10282
G1 X86.924 Y30.066 E10.14055
G1 X87.103 Y29.320 E10.17829
G1 X87.396 Y28.612 E10.21602
G1 X87.797 Y27.958 E10.25375
G1 X88.295 Y27.375 E10.29149
G1 X88.878 Y26.877 E10.32923
G1 X89.532 Y26.476 E10.36695
G1 X90.235 Y26.185 E10.40443
G1 X90.955 Y26.006 E10.44093
G1 X91.750 Y25.944 E10.48018 F600.000
G1 X92.518 Y26.004 E10.51810
G1 X92.914 Y26.102 E10.53814
G1 X92.880 Y26.490 F9000.000
G1 X93.162 Y26.560 E10.55245 F600.000
G1 X93.793 Y26.821 E10.58605
G1 X94.395 Y27.190 E10.62079
G1 X94.931 Y27.648 E10.65553
G1 X95.390 Y28.185 E10.69029
G1 X95.759 Y28.787 E10.72503
G1 X96.029 Y29.440 E10.75978
G1 X96.194 Y30.126 E10.79452
G1 X96.249 Y30.830 E10.82927
G1 X96.194 Y31.534 E10.86402
G1 X96.029 Y32.220 E10.89877
G1 X95.759 Y32.873 E10.93351
G1 X95.390 Y33.475 E10.96826
G1 X94.931 Y34.012 E11.00301
G1 X94.395 Y34.470 E11.03776
G1 X93.793 Y34.839 E11.07250
G1 X93.140 Y35.109 E11.10725
G1 X92.451 Y35.275 E11.14214
G1 X91.727 Y35.327 E11.17788
G1 X91.046 Y35.274 E11.21148
G1 X90.360 Y35.109 E11.24623
G1 X89.707 Y34.839 E11.28098
G1 X89.105 Y34.470 E11.31572
G1 X88.569 Y34.012 E11.35046
G1 X88.110 Y33.475 E11.38522
G1 X87.741 Y32.873 E11.41996
G1 X87.471 Y32.220 E11.45471
G1 X87.306 Y31.534 E11.48945
G1 X87.251 Y30.830 E11.52420
G1 X87.306 Y30.126 E11.55895
G1 X87.471 Y29.440 E11.59370
G1 X87.741 Y28.787 E11.62844
G1 X88.110 Y28.185 E11.66319
G1 X88.569 Y27.648 E11.69794
G1 X89.105 Y27.190 E11.73269
G1 X89.707 Y26.821 E11.76743
G1 X90.356 Y26.552 E11.80199
G1 X91.017 Y26.388 E11.83550
G1 X91.750 Y26.331 E11.87169 F600.000
G1 X92.457 Y26.386 E11.90657
G1 X92.822 Y26.476 E11.92507
G1 X92.788 Y26.865 F9000.000
G1 X93.042 Y26.927 E11.93793 F600.000
G1 X93.617 Y27.166 E11.96859
G1 X94.167 Y27.503 E12.00035
G1 X94.658 Y27.922 E12.03211
G1 X95.077 Y28.413 E12.06387
G1 X95.414 Y28.963 E12.09563
G1 X95.661 Y29.559 E12.12739
G1 X95.812 Y30.187 E12.15915
G1 X95.863 Y30.830 E12.19091
G1 X95.812 Y31.473 E12.22267
G1 X95.661 Y32.101 E12.25443
G1 X95.414 Y32.697 E12.28619
G1 X95.077 Y33.247 E12.31795
G1 X94.658 Y33.738 E12.34971
G1 X94.167 Y34.157 E12.38147
G1 X93.617 Y34.494 E12.41323
G1 X93.021 Y34.741 E12.44499
G1 X92.392 Y34.892 E12.47684
G1 X91.728 Y34.941 E12.50960
G1 X91.107 Y34.892 E12.54026
G1 X90.479 Y34.741 E12.57202
G1 X89.883 Y34.494 E12.60378
G1 X89.333 Y34.157 E12.63553
G1 X88.842 Y33.738 E12.66730
G1 X88.423 Y33.247 E12.69906
G1 X88.086 Y32.697 E12.73082
G1 X87.839 Y32.101 E12.76258
G1 X87.688 Y31.473 E12.79434
G1 X87.637 Y30.830 E12.82609
G1 X87.688 Y30.187 E12.85785
G1 X87.839 Y29.559 E12.88961
G1 X88.086 Y28.963 E12.92137
G1 X88.423 Y28.413 E12.95313
G1 X88.842 Y27.922 E12.98489
G1 X89.333 Y27.503 E13.01666
G1 X89.883 Y27.166 E13.04841
G1 X90.477 Y26.920 E13.08006
G1 X91.079 Y26.770 E13.11058
G1 X91.750 Y26.717 E13.14371 F600.000
G1 X92.395 Y26.768 E13.17555
G1 X92.729 Y26.851 E13.19250
G1 X92.696 Y27.239 F9000.000
G1 X92.921 Y27.295 E13.20393 F600.000
G1 X93.441 Y27.510 E13.23165
G1 X93.940 Y27.816 E13.26042
G1 X94.384 Y28.196 E13.28920
G1 X94.764 Y28.640 E13.31797
G1 X95.070 Y29.139 E13.34674
G1 X95.293 Y29.679 E13.37551
G1 X95.430 Y30.247 E13.40429
G1 X95.476 Y30.830 E13.43306
G1 X95.430 Y31.413 E13.46183
G1 X95.293 Y31.981 E13.49060
G1 X95.070 Y32.521 E13.51938
G1 X94.764 Y33.020 E13.54815
G1 X94.384 Y33.464 E13.57692
G1 X93.940 Y33.844 E13.60570
G1 X93.441 Y34.150 E13.63446
G1 X92.901 Y34.373 E13.66324
G1 X92.332 Y34.510 E13.69205
G1 X91.729 Y34.554 E13.72182
G1 X91.167 Y34.510 E13.74954
G1 X90.599 Y34.373 E13.77832
G1 X90.059 Y34.150 E13.80709
G1 X89.560 Y33.844 E13.83586
G1 X89.116 Y33.464 E13.86464
G1 X88.736 Y33.020 E13.89341
G1 X88.430 Y32.521 E13.92218
G1 X88.207 Y31.981 E13.95095
G1 X88.070 Y31.413 E13.97973
G1 X88.024 Y30.830 E14.00850
G1 X88.070 Y30.247 E14.03727
G1 X88.207 Y29.679 E14.06604
G1 X88.430 Y29.139 E14.09482
G1 X88.736 Y28.640 E14.12359
G1 X89.116 Y28.196 E14.15236
G1 X89.560 Y27.816 E14.18114
G1 X90.059 Y27.510 E14.20991
G1 X90.598 Y27.287 E14.23864
G1 X91.141 Y27.152 E14.26617
G1 X91.750 Y27.104 E14.29624 F600.000
G1 X92.333 Y27.150 E14.32504
G1 X92.637 Y27.225 E14.34044
G1 X92.856 Y27.072 F9000.000
G1 X95.267 Y24.597 F9000.000
G1 X95.267 Y20.097 E14.56191 F600.000
G1 X109.983 Y20.097 E15.28611
G1 X109.983 Y41.563 E16.34252
G1 X95.267 Y41.563 E17.06672
G1 X95.267 Y37.063 E17.28819
G1 X88.233 Y37.063 E17.63441
G1 X88.233 Y40.948 E17.82564
G1 X86.880 Y40.388 E17.89769
G1 X85.445 Y39.508 E17.98053
G1 X84.165 Y38.415 E18.06337
G1 X83.072 Y37.135 E18.14622
G1 X82.192 Y35.700 E18.22906
G1 X81.548 Y34.145 E18.31190
G1 X81.155 Y32.508 E18.39474
G1 X81.023 Y30.830 E18.47758
G1 X81.155 Y29.152 E18.56043
G1 X81.548 Y27.515 E18.64327
G1 X82.192 Y25.960 E18.72611
G1 X83.072 Y24.525 E18.80895
G1 X84.165 Y23.245 E18.89180
G1 X85.445 Y22.152 E18.97464
G1 X86.880 Y21.272 E19.05748
G1 X88.233 Y20.712 E19.12953
G1 X88.233 Y24.597 E19.32076
G1 X95.207 Y24.597 E19.66403
G1 X94.882 Y24.212 F9000.000
G1 X94.882 Y19.712 E19.88550 F600.000
G1 X110.368 Y19.712 E20.64766
G1 X110.368 Y41.948 E21.74202
G1 X94.882 Y41.948 E22.50417
G1 X94.882 Y37.448 E22.72564
G1 X88.618 Y37.448 E23.03391
G1 X88.618 Y41.473 E23.23197
G1 X88.316 Y41.400 E23.24728
G1 X86.704 Y40.733 E23.33311
G1 X85.217 Y39.821 E23.41894
G1 X83.891 Y38.689 E23.50477
G1 X82.759 Y37.363 E23.59060
G1 X81.847 Y35.876 E23.67643
G1 X81.180 Y34.264 E23.76226
G1 X80.773 Y32.569 E23.84809
G1 X80.636 Y30.830 E23.93392
G1 X80.773 Y29.091 E24.01975
G1 X81.180 Y27.396 E24.10558
G1 X81.847 Y25.784 E24.19141
G1 X82.759 Y24.297 E24.27724
G1 X83.891 Y22.971 E24.36307
G1 X85.217 Y21.839 E24.44890
G1 X86.704 Y20.927 E24.53473
G1 X88.316 Y20.260 E24.62055
G1 X88.618 Y20.187 E24.63587
G1 X88.618 Y24.212 E24.83393
G1 X94.822 Y24.212 E25.13924
G1 X94.496 Y23.826 F9000.000
G1 X94.496 Y19.834 E25.33573 F600.000
G1 X89.314 Y19.834 E25.59077
G1 X89.290 Y19.630 E25.60089
G1 X89.951 Y19.471 E25.63434
G1 X91.789 Y19.326 E25.72509
