; generated by Slic3r 1.2.9 on 2019-10-02 at 12:43:52

; external perimeters extrusion width = 0.40mm
; perimeters extrusion width = 0.62mm
; infill extrusion width = 0.33mm
; solid infill extrusion width = 0.62mm
; top infill extrusion width = 0.20mm
; support material extrusion width = 0.40mm

M106 S256; Turn on fan to 100% power
M104 S140; turn on extruder temperature at S value
M140 S60; turn on bed temperature at S value
G28; home all axes
M84; disable motors
G1 Z15 F15000; have Z move to 20mm at 15000 mm/min
M190 S55; turn on bed temperature at S value and wait
M140 S55; turn on bed temperature at S value (printing temperature)
M109 S200; turn on extruder temperature at S value and wait (printing temperature)
M104 S200; turn on extruder temperature at S value
G1 Z0 F12000; move Z back to home
G21 ; set units to millimeters
G90 ; use absolute coordinates
M82 ; use absolute distances for extrusion
G92 E0
M106 S255
;Layer change
G1 E-6.00000 F1800.00000
G92 E0
G1 Z0.300 F9000.000
G1 X75.084 Y19.259 F9000.000
G1 E6.00000 F1800.00000
G1 X75.200 Y18.903 E6.01842 F600.000
G1 X75.560 Y18.033 E6.06476
G1 X75.730 Y17.700 E6.08318
G1 X76.222 Y16.897 E6.12952
G1 X76.442 Y16.594 E6.14795
G1 X77.053 Y15.878 E6.19429
G1 X77.318 Y15.613 E6.21270
G1 X78.034 Y15.002 E6.25904
G1 X78.337 Y14.782 E6.27746
G1 X79.140 Y14.290 E6.32380
G1 X79.473 Y14.120 E6.34222
G1 X80.343 Y13.760 E6.38856
G1 X80.699 Y13.644 E6.40698
G1 X81.614 Y13.424 E6.45332
G1 X81.984 Y13.366 E6.47174
G1 X82.923 Y13.292 E6.51808
G1 X83.286 Y13.291 E6.53596
G1 X137.286 Y17.291 E9.20086
G1 X138.563 Y17.778 E9.26813 F600.000
G1 X139.363 Y18.887 E9.33540
G1 X139.496 Y19.670 E9.37451
G1 X139.496 Y23.670 E9.57137
G1 X139.104 Y24.980 E9.63864
G1 X138.058 Y25.859 E9.70591
G1 X137.286 Y26.049 E9.74502
G1 X83.286 Y30.049 E12.40991
G1 X82.923 Y30.048 E12.42780
G1 X81.984 Y29.974 E12.47413
G1 X81.614 Y29.916 E12.49255
G1 X80.699 Y29.696 E12.53889
G1 X80.343 Y29.580 E12.55731
G1 X79.473 Y29.220 E12.60365
G1 X79.140 Y29.050 E12.62207
G1 X78.337 Y28.558 E12.66841
G1 X78.034 Y28.338 E12.68684
G1 X77.318 Y27.727 E12.73317
G1 X77.053 Y27.462 E12.75159
G1 X76.442 Y26.746 E12.79793
G1 X76.222 Y26.443 E12.81636
G1 X75.730 Y25.640 E12.86269
G1 X75.560 Y25.307 E12.88111
G1 X75.200 Y24.437 E12.92745
G1 X75.084 Y24.081 E12.94587
G1 X74.864 Y23.165 E12.99221
G1 X74.806 Y22.796 E13.01063
G1 X74.734 Y21.881 E13.05581
G1 X74.732 Y21.483 E13.07539
G1 X74.806 Y20.544 E13.12173
G1 X74.864 Y20.174 E13.14015
G1 X75.070 Y19.317 E13.18353
G1 E7.18353 F1800.00000
G92 E0
G1 X85.106 Y25.260 F9000.000
G1 E6.00000 F1800.00000
G1 X83.747 Y25.619 E6.06919 F600.000
G1 X83.110 Y25.669 E6.10063
G1 X82.484 Y25.620 E6.13152
G1 X81.874 Y25.474 E6.16241
G1 X81.294 Y25.233 E6.19329
G1 X80.759 Y24.905 E6.22418
G1 X80.282 Y24.498 E6.25506
G1 X79.874 Y24.021 E6.28595
G1 X79.547 Y23.486 E6.31683
G1 X79.306 Y22.906 E6.34772
G1 X79.160 Y22.296 E6.37861
G1 X79.111 Y21.670 E6.40949
G1 X79.160 Y21.042 E6.44047
G1 X79.312 Y20.421 E6.47193
G1 X79.547 Y19.854 E6.50214
G1 X79.874 Y19.319 E6.53303
G1 X80.282 Y18.842 E6.56392
G1 X80.759 Y18.435 E6.59480
G1 X81.294 Y18.107 E6.62568
G1 X81.874 Y17.866 E6.65657
G1 X82.484 Y17.720 E6.68746
G1 X83.096 Y17.672 E6.71767
G1 X83.745 Y17.720 E6.74968
G1 X85.106 Y18.080 E6.81897
G1 X85.106 Y25.200 E7.16941
G1 X84.721 Y24.963 F9000.000
G1 X83.682 Y25.237 E7.22228 F600.000
G1 X83.110 Y25.283 E7.25052
G1 X82.545 Y25.238 E7.27842
G1 X81.994 Y25.106 E7.30632
G1 X81.470 Y24.889 E7.33421
G1 X80.987 Y24.593 E7.36211
G1 X80.556 Y24.224 E7.39001
G1 X80.187 Y23.793 E7.41791
G1 X79.891 Y23.310 E7.44581
G1 X79.674 Y22.786 E7.47370
G1 X79.542 Y22.235 E7.50161
G1 X79.497 Y21.670 E7.52950
G1 X79.542 Y21.104 E7.55746
G1 X79.679 Y20.542 E7.58593
G1 X79.891 Y20.030 E7.61319
G1 X80.187 Y19.547 E7.64109
G1 X80.556 Y19.116 E7.66899
G1 X80.987 Y18.747 E7.69688
G1 X81.470 Y18.451 E7.72478
G1 X81.994 Y18.234 E7.75268
G1 X82.545 Y18.102 E7.78058
G1 X83.097 Y18.059 E7.80784
G1 X83.681 Y18.102 E7.83666
G1 X84.721 Y18.377 E7.88958
G1 X84.721 Y24.903 E8.21079
G1 X84.335 Y24.666 F9000.000
G1 X83.617 Y24.856 E8.24732 F600.000
G1 X83.110 Y24.896 E8.27236
G1 X82.605 Y24.856 E8.29727
G1 X82.113 Y24.738 E8.32219
G1 X81.646 Y24.544 E8.34710
G1 X81.214 Y24.280 E8.37201
G1 X80.829 Y23.951 E8.39692
G1 X80.500 Y23.566 E8.42183
G1 X80.236 Y23.134 E8.44674
G1 X80.042 Y22.667 E8.47165
G1 X79.924 Y22.175 E8.49656
G1 X79.884 Y21.670 E8.52147
G1 X79.924 Y21.165 E8.54641
G1 X80.047 Y20.662 E8.57189
G1 X80.236 Y20.206 E8.59620
G1 X80.500 Y19.774 E8.62111
G1 X80.829 Y19.389 E8.64602
G1 X81.214 Y19.060 E8.67093
G1 X81.646 Y18.796 E8.69585
G1 X82.113 Y18.602 E8.72076
G1 X82.605 Y18.484 E8.74567
G1 X83.098 Y18.445 E8.76998
G1 X83.617 Y18.484 E8.79559
G1 X84.335 Y18.674 E8.83215
G1 X84.335 Y24.606 E9.12412
G1 X84.403 Y25.060 F9000.000
G1 X84.634 Y17.556 F9000.000
G1 X83.991 Y17.386 E9.15683 F600.000
G1 X84.047 Y17.165 E9.16809
G1 X84.536 Y17.282 E9.19282
G1 X84.703 Y17.351 E9.20172
G1 X84.653 Y17.499 E9.20941
G1 X87.575 Y21.437 F9000.000
G1 X135.343 Y21.437 E11.56030 F600.000
G1 X135.343 Y21.903 E11.58319
G1 X87.575 Y21.903 E13.93407
G1 X86.876 Y23.589 E14.02391
G1 X86.530 Y24.155 E14.05656
G1 X86.099 Y24.659 E14.08920
G1 X85.877 Y24.848 E14.10354
G1 X85.877 Y18.492 E14.41636
G1 X86.099 Y18.681 E14.43069
G1 X86.530 Y19.185 E14.46334
G1 X86.876 Y19.751 E14.49598
G1 X87.552 Y21.382 E14.58287
G1 X87.833 Y21.052 F9000.000
G1 X135.728 Y21.052 E16.94005 F600.000
G1 X135.728 Y22.288 E17.00090
G1 X87.833 Y22.288 E19.35808
G1 X87.221 Y23.765 E19.43673
G1 X86.843 Y24.382 E19.47237
G1 X86.372 Y24.932 E19.50800
G1 X85.822 Y25.403 E19.54363
G1 X85.492 Y25.605 E19.56268
G1 X85.492 Y17.735 E19.95000
G1 X85.822 Y17.937 E19.96906
G1 X86.372 Y18.408 E20.00469
G1 X86.843 Y18.958 E20.04032
G1 X87.221 Y19.575 E20.07595
G1 X87.810 Y20.996 E20.15165
G1 X84.634 Y25.784 F9000.000
G1 X84.703 Y25.989 E20.16230 F600.000
G1 X84.536 Y26.058 E20.17120
G1 X84.047 Y26.175 E20.19594
G1 X83.991 Y25.954 E20.20720
G1 X84.576 Y25.799 E20.23695
G1 X88.090 Y22.674 F9000.000
G1 X87.566 Y23.940 E20.30442 F600.000
G1 X87.156 Y24.609 E20.34304
G1 X86.646 Y25.206 E20.38166
G1 X86.049 Y25.716 E20.42028
G1 X85.380 Y26.126 E20.45890
G1 X84.655 Y26.426 E20.49751
G1 X83.892 Y26.609 E20.53613
G1 X83.110 Y26.671 E20.57475
G1 X82.328 Y26.609 E20.61337
G1 X81.565 Y26.426 E20.65199
G1 X80.840 Y26.126 E20.69061
G1 X80.171 Y25.716 E20.72923
G1 X79.574 Y25.206 E20.76785
G1 X79.064 Y24.609 E20.80647
G1 X78.654 Y23.940 E20.84508
G1 X78.354 Y23.215 E20.88370
G1 X78.176 Y22.473 E20.92126
G1 X78.109 Y21.668 E20.96102
G1 X78.171 Y20.888 E20.99954
G1 X78.354 Y20.125 E21.03816
G1 X78.654 Y19.400 E21.07678
G1 X79.053 Y18.749 E21.11434
G1 X79.575 Y18.133 E21.15410
G1 X80.171 Y17.624 E21.19263
G1 X80.840 Y17.214 E21.23125
G1 X81.565 Y16.914 E21.26986
G1 X82.326 Y16.731 E21.30839
G1 X83.132 Y16.671 E21.34815
G1 X83.892 Y16.731 E21.38571
G1 X84.655 Y16.914 E21.42432
G1 X85.380 Y17.214 E21.46294
G1 X86.049 Y17.624 E21.50156
G1 X86.646 Y18.134 E21.54018
G1 X87.156 Y18.731 E21.57880
G1 X87.566 Y19.400 E21.61742
G1 X88.090 Y20.666 E21.68489
G1 X136.114 Y20.666 E24.04837
G1 X136.114 Y22.674 E24.14717
G1 X88.150 Y22.674 E26.50769
G1 X88.348 Y23.059 F9000.000
G1 X87.910 Y24.116 E26.56397 F600.000
G1 X87.469 Y24.837 E26.60558
G1 X86.919 Y25.480 E26.64719
G1 X86.277 Y26.029 E26.68879
G1 X85.556 Y26.470 E26.73040
G1 X84.775 Y26.794 E26.77200
G1 X83.953 Y26.991 E26.81361
G1 X83.110 Y27.057 E26.85521
G1 X82.267 Y26.991 E26.89682
G1 X81.445 Y26.794 E26.93843
G1 X80.664 Y26.470 E26.98003
G1 X79.943 Y26.029 E27.02164
G1 X79.301 Y25.480 E27.06324
G1 X78.751 Y24.837 E27.10485
G1 X78.310 Y24.116 E27.14646
G1 X77.986 Y23.335 E27.18806
G1 X77.794 Y22.535 E27.22857
G1 X77.723 Y21.669 E27.27132
G1 X77.789 Y20.827 E27.31287
G1 X77.986 Y20.005 E27.35447
G1 X78.310 Y19.224 E27.39608
G1 X78.740 Y18.522 E27.43658
G1 X79.301 Y17.860 E27.47934
G1 X79.943 Y17.311 E27.52088
G1 X80.664 Y16.870 E27.56249
G1 X81.445 Y16.546 E27.60410
G1 X82.266 Y16.349 E27.64564
G1 X83.132 Y16.284 E27.68839
G1 X83.953 Y16.349 E27.72890
G1 X84.775 Y16.546 E27.77051
G1 X85.556 Y16.870 E27.81211
G1 X86.277 Y17.311 E27.85372
G1 X86.919 Y17.860 E27.89532
G1 X87.469 Y18.503 E27.93693
G1 X87.910 Y19.224 E27.97854
G1 X88.348 Y20.281 E28.03482
G1 X136.499 Y20.281 E30.40459
G1 X136.499 Y23.059 E30.54135
G1 X88.408 Y23.059 E32.90818
G1 X88.606 Y23.445 F9000.000
G1 X88.255 Y24.291 E32.95327 F600.000
G1 X87.782 Y25.064 E32.99786
G1 X87.193 Y25.753 E33.04246
G1 X86.504 Y26.342 E33.08705
G1 X85.731 Y26.815 E33.13164
G1 X84.894 Y27.162 E33.17623
G1 X84.013 Y27.373 E33.22083
G1 X83.110 Y27.444 E33.26542
G1 X82.207 Y27.373 E33.31001
G1 X81.326 Y27.162 E33.35461
G1 X80.489 Y26.815 E33.39920
G1 X79.716 Y26.342 E33.44379
G1 X79.027 Y25.753 E33.48839
G1 X78.438 Y25.064 E33.53298
G1 X77.965 Y24.291 E33.57757
G1 X77.618 Y23.454 E33.62217
G1 X77.412 Y22.596 E33.66562
G1 X77.336 Y21.670 E33.71136
G1 X77.407 Y20.767 E33.75593
G1 X77.618 Y19.886 E33.80053
G1 X77.965 Y19.049 E33.84512
G1 X78.426 Y18.296 E33.88858
G1 X79.027 Y17.587 E33.93432
G1 X79.716 Y16.998 E33.97889
G1 X80.489 Y16.525 E34.02348
G1 X81.326 Y16.178 E34.06807
G1 X82.206 Y15.967 E34.11265
G1 X83.133 Y15.898 E34.15838
G1 X84.013 Y15.967 E34.20184
G1 X84.894 Y16.178 E34.24643
G1 X85.731 Y16.525 E34.29102
G1 X86.504 Y16.998 E34.33562
G1 X87.193 Y17.587 E34.38021
G1 X87.782 Y18.276 E34.42481
G1 X88.255 Y19.049 E34.46940
G1 X88.606 Y19.895 E34.51449
G1 X136.885 Y19.895 E36.89057
G1 X136.885 Y23.445 E37.06528
G1 X88.666 Y23.445 E39.43840
G1 X88.219 Y23.341 F9000.000
G1 X87.463 Y21.670 F9000.000
G1 X135.150 Y21.670 E41.78533 F600.000
G1 X86.405 Y19.631 F9000.000
G1 X86.181 Y19.406 E41.80093 F600.000
G1 X86.161 Y19.932 E41.82682
G1 X86.916 Y20.687 E41.87937
G1 X86.161 Y20.477 E41.91793
G1 X87.179 Y21.495 E41.98876
G1 X87.179 Y22.040 E42.01561
G1 X86.161 Y21.023 E42.08644
G1 X86.161 Y21.568 E42.11329
G1 X87.061 Y22.468 E42.17591
G1 X86.901 Y22.853 E42.19646
G1 X86.161 Y22.114 E42.24796
G1 X86.161 Y22.659 E42.27481
G1 X86.741 Y23.239 E42.31518
G1 X86.567 Y23.610 E42.33536
G1 X86.161 Y23.205 E42.36358
G1 X86.161 Y23.750 E42.39042
G1 X86.345 Y23.934 E42.40321
G1 X83.832 Y26.113 F9000.000
G1 X83.086 Y26.168 E42.48303 F600.000
G1 X82.406 Y26.114 E42.55576
G1 X81.743 Y25.955 E42.62849
G1 X81.067 Y25.679 E42.70633
G1 X80.447 Y25.295 E42.78419
G1 X79.928 Y24.852 E42.85691
G1 X79.485 Y24.333 E42.92964
G1 X79.101 Y23.713 E43.00748
G1 X78.831 Y23.060 E43.08278
G1 X78.671 Y22.397 E43.15552
G1 X78.611 Y21.667 E43.23366
G1 X78.672 Y20.939 E43.31156
G1 X78.831 Y20.280 E43.38392
G1 X79.101 Y19.627 E43.45922
G1 X79.486 Y19.008 E43.53703
G1 X79.930 Y18.486 E43.61007
G1 X80.447 Y18.045 E43.68248
G1 X81.067 Y17.661 E43.76034
G1 X81.743 Y17.385 E43.83818
G1 X82.403 Y17.226 E43.91061
G1 X83.072 Y17.174 E43.98214
G1 X83.833 Y17.227 E44.06343
;Layer change
G1 E38.06343 F1800.00000
G92 E0
G1 Z0.300 F9000.000
M104 S205 ; set temperature
M140 S55 ; wait for bed temperature to be reached
;Layer change
G1 Z0.520 F9000.000
G1 X85.343 Y25.443 F9000.000
G1 E6.00000 F1800.00000
G1 X83.787 Y25.854 E6.08606 F900.000
G1 X83.110 Y25.907 E6.12235
G1 X82.447 Y25.855 E6.15789
G1 X81.801 Y25.700 E6.19344
G1 X81.186 Y25.445 E6.22898
G1 X80.619 Y25.098 E6.26453
G1 X80.114 Y24.666 E6.30007
G1 X79.682 Y24.160 E6.33561
G1 X79.335 Y23.594 E6.37115
G1 X79.080 Y22.979 E6.40669
G1 X78.925 Y22.333 E6.44224
G1 X78.873 Y21.670 E6.47778
G1 X78.925 Y21.007 E6.51333
G1 X79.080 Y20.361 E6.54888
G1 X79.335 Y19.746 E6.58442
G1 X79.682 Y19.180 E6.61996
G1 X80.114 Y18.674 E6.65550
G1 X80.619 Y18.242 E6.69104
G1 X81.186 Y17.895 E6.72659
G1 X81.801 Y17.640 E6.76213
G1 X82.447 Y17.485 E6.79768
G1 X83.018 Y17.440 E6.82829
G1 X83.773 Y17.483 E6.86873
G1 X85.343 Y17.897 E6.95553
G1 X85.343 Y25.383 E7.35571
G1 X84.772 Y25.003 F9000.000
G1 X83.691 Y25.288 E7.41550 F900.000
G1 X83.110 Y25.334 E7.44664
G1 X82.537 Y25.289 E7.47738
G1 X81.978 Y25.155 E7.50811
G1 X81.447 Y24.935 E7.53885
G1 X80.956 Y24.634 E7.56959
G1 X80.519 Y24.261 E7.60032
G1 X80.146 Y23.824 E7.63106
G1 X79.845 Y23.333 E7.66180
G1 X79.625 Y22.802 E7.69253
G1 X79.491 Y22.243 E7.72327
G1 X79.446 Y21.670 E7.75401
G1 X79.491 Y21.097 E7.78475
G1 X79.625 Y20.538 E7.81549
G1 X79.845 Y20.007 E7.84622
G1 X80.146 Y19.516 E7.87696
G1 X80.519 Y19.079 E7.90770
G1 X80.956 Y18.706 E7.93843
G1 X81.447 Y18.405 E7.96917
G1 X81.978 Y18.185 E7.99990
G1 X82.537 Y18.051 E8.03064
G1 X83.025 Y18.013 E8.05680
G1 X83.683 Y18.050 E8.09208
G1 X84.772 Y18.337 E8.15227
G1 X84.772 Y24.943 E8.50541
G1 X84.310 Y24.647 F9000.000
G1 X83.613 Y24.831 E8.52921 F900.000
G1 X83.110 Y24.871 E8.54587
G1 X82.609 Y24.831 E8.56245
G1 X82.121 Y24.714 E8.57903
G1 X81.657 Y24.522 E8.59562
G1 X81.229 Y24.259 E8.61220
G1 X80.847 Y23.933 E8.62878
G1 X80.521 Y23.551 E8.64537
G1 X80.258 Y23.123 E8.66195
G1 X80.066 Y22.659 E8.67853
G1 X79.949 Y22.171 E8.69511
G1 X79.909 Y21.670 E8.71170
G1 X79.949 Y21.169 E8.72828
G1 X80.066 Y20.681 E8.74486
G1 X80.258 Y20.217 E8.76145
G1 X80.521 Y19.789 E8.77803
G1 X80.847 Y19.407 E8.79461
G1 X81.229 Y19.081 E8.81119
G1 X81.657 Y18.818 E8.82778
G1 X82.121 Y18.626 E8.84436
G1 X82.609 Y18.509 E8.86094
G1 X83.030 Y18.476 E8.87487
G1 X83.611 Y18.508 E8.89408
G1 X84.310 Y18.693 E8.91796
G1 X84.310 Y24.587 E9.11257
G1 X84.378 Y25.041 F9000.000
G1 X86.486 Y22.223 F9000.000
G1 X86.486 Y21.117 E9.17165 F900.000
G1 X86.761 Y21.063 E9.18669
G1 X87.013 Y21.670 E9.22184
G1 X86.761 Y22.277 E9.25699
G1 X86.544 Y22.234 E9.26881
G1 X87.550 Y21.866 F9000.000
G1 X86.843 Y23.572 E9.36757 F3000.000
G1 X86.500 Y24.133 E9.40272
G1 X85.914 Y24.818 E9.45090
G1 X85.914 Y18.522 E9.78751
G1 X86.500 Y19.207 E9.83570
G1 X86.843 Y19.768 E9.87085
G1 X87.550 Y21.474 E9.96960
G1 X135.306 Y21.474 E12.52259
G1 X135.306 Y21.866 E12.54351
G1 X87.610 Y21.866 E15.09329
G1 X87.932 Y22.437 F9000.000
G1 X87.354 Y23.832 E15.17405 F3000.000
G1 X86.963 Y24.470 E15.21400
G1 X86.478 Y25.038 E15.25396
G1 X85.910 Y25.523 E15.29391
G1 X85.272 Y25.914 E15.33387
G1 X84.582 Y26.200 E15.37382
G1 X83.855 Y26.374 E15.41378
G1 X83.110 Y26.433 E15.45374
G1 X82.365 Y26.374 E15.49369
G1 X81.638 Y26.200 E15.53365
G1 X80.948 Y25.914 E15.57360
G1 X80.310 Y25.523 E15.61356
G1 X79.742 Y25.038 E15.65351
G1 X79.257 Y24.470 E15.69347
G1 X78.866 Y23.832 E15.73342
G1 X78.580 Y23.142 E15.77338
G1 X78.411 Y22.437 E15.81214
G1 X78.347 Y21.667 E15.85341
G1 X78.406 Y20.925 E15.89323
G1 X78.580 Y20.198 E15.93319
G1 X78.866 Y19.508 E15.97315
G1 X79.257 Y18.870 E16.01310
G1 X79.742 Y18.302 E16.05306
G1 X80.310 Y17.817 E16.09301
G1 X80.948 Y17.426 E16.13297
G1 X81.638 Y17.140 E16.17292
G1 X82.359 Y16.967 E16.21255
G1 X83.168 Y16.912 E16.25590
G1 X83.855 Y16.966 E16.29275
G1 X84.582 Y17.140 E16.33271
G1 X85.272 Y17.426 E16.37266
G1 X85.910 Y17.817 E16.41262
G1 X86.478 Y18.302 E16.45257
G1 X86.963 Y18.870 E16.49253
G1 X87.354 Y19.508 E16.53249
G1 X87.932 Y20.903 E16.61324
G1 X135.877 Y20.903 E19.17636
G1 X135.877 Y22.437 E19.25835
G1 X87.992 Y22.437 E21.81827
G1 X88.314 Y23.008 F9000.000
G1 X87.864 Y24.092 E21.88102 F3000.000
G1 X87.427 Y24.806 E21.92578
G1 X86.883 Y25.443 E21.97055
G1 X86.246 Y25.987 E22.01531
G1 X85.532 Y26.424 E22.06007
G1 X84.759 Y26.745 E22.10483
G1 X83.945 Y26.940 E22.14960
G1 X83.110 Y27.006 E22.19436
G1 X82.275 Y26.940 E22.23912
G1 X81.461 Y26.745 E22.28388
G1 X80.688 Y26.424 E22.32864
G1 X79.974 Y25.987 E22.37341
G1 X79.337 Y25.443 E22.41817
G1 X78.793 Y24.806 E22.46293
G1 X78.356 Y24.092 E22.50769
G1 X78.035 Y23.319 E22.55246
G1 X77.845 Y22.528 E22.59596
G1 X77.774 Y21.669 E22.64204
G1 X77.840 Y20.835 E22.68673
G1 X78.035 Y20.021 E22.73149
G1 X78.356 Y19.248 E22.77625
G1 X78.793 Y18.534 E22.82101
G1 X79.337 Y17.897 E22.86578
G1 X79.974 Y17.353 E22.91054
G1 X80.688 Y16.916 E22.95530
G1 X81.461 Y16.595 E23.00006
G1 X82.272 Y16.401 E23.04465
G1 X83.171 Y16.339 E23.09281
G1 X83.945 Y16.400 E23.13431
G1 X84.759 Y16.595 E23.17907
G1 X85.532 Y16.916 E23.22383
G1 X86.246 Y17.353 E23.26860
G1 X86.883 Y17.897 E23.31336
G1 X87.427 Y18.534 E23.35812
G1 X87.864 Y19.248 E23.40288
