; generated by Slic3r 1.2.9 on 2019-10-03 at 10:19:56

; external perimeters extrusion width = 0.40mm
; perimeters extrusion width = 0.62mm
; infill extrusion width = 0.33mm
; solid infill extrusion width = 0.62mm
; top infill extrusion width = 0.20mm

M106 S256; Turn on fan to 100% power
M104 S140; turn on extruder temperature at S value
M140 S60; turn on bed temperature at S value
G28; home all axes
M84; disable motors
G1 Z15 F15000; have Z move to 20mm at 15000 mm/min
M190 S55; turn on bed temperature at S value and wait
M140 S55; turn on bed temperature at S value (printing temperature)
M109 S200; turn on extruder temperature at S value and wait (printing temperature)
M104 S200; turn on extruder temperature at S value
G1 Z0 F12000; move Z back to home
G21 ; set units to millimeters
G90 ; use absolute coordinates
M82 ; use absolute distances for extrusion
G92 E0
M106 S255
;Layer change
G1 E-6.00000 F1800.00000
G92 E0
G1 Z0.300 F9000.000
G1 X30.076 Y13.170 F9000.000
G1 E6.00000 F1800.00000
G1 X31.122 Y12.291 E6.06727 F600.000
G1 X32.070 Y12.094 E6.11491
G1 X82.070 Y12.094 E8.57566
G1 X82.634 Y12.162 E8.60361
G1 X156.634 Y30.162 E12.35172 F600.000
G1 X157.814 Y30.852 E12.41899
G1 X158.456 Y32.480 E12.50511
G1 X158.456 Y36.480 E12.70197
G1 X158.064 Y37.790 E12.76925
G1 X156.634 Y38.798 E12.85537
G1 X82.634 Y56.798 E16.60348
G1 X82.070 Y56.866 E16.63143
G1 X32.070 Y56.866 E19.09218
G1 X30.760 Y56.474 E19.15945
G1 X29.881 Y55.428 E19.22673
G1 X29.684 Y54.480 E19.27436
G1 X29.684 Y14.480 E21.24296
G1 X30.059 Y13.228 E21.30728
G1 E15.30728 F1800.00000
G92 E0
G1 X80.303 Y16.247 F9000.000
G1 E6.00000 F1800.00000
G1 X80.303 Y52.713 E7.79463 F600.000
G1 X33.837 Y52.713 E10.08141
G1 X33.837 Y16.247 E11.87604
G1 X80.243 Y16.247 E14.15987
G1 X80.688 Y15.862 F9000.000
G1 X80.688 Y53.098 E15.99245 F600.000
G1 X33.452 Y53.098 E18.31719
G1 X33.452 Y15.862 E20.14978
G1 X80.628 Y15.862 E22.47156
G1 X81.074 Y15.476 F9000.000
G1 X81.074 Y53.484 E24.34210 F600.000
G1 X33.066 Y53.484 E26.70480
G1 X33.066 Y15.476 E28.57534
G1 X81.014 Y15.476 E30.93508
G1 X81.459 Y15.091 F9000.000
G1 X81.459 Y53.869 E32.84358 F600.000
G1 X32.681 Y53.869 E35.24423
G1 X32.681 Y15.091 E37.15273
G1 X81.399 Y15.091 E39.55043
G1 X81.845 Y14.705 F9000.000
G1 X81.845 Y54.255 E41.49688 F600.000
G1 X32.295 Y54.255 E43.93549
G1 X32.295 Y14.705 E45.88195
G1 X81.785 Y14.705 E48.31760
G1 X81.645 Y15.051 F9000.000
G1 X80.019 Y16.735 F9000.000
G1 X79.815 Y16.531 E48.33179 F600.000
G1 X79.269 Y16.531 E48.35872
G1 X80.019 Y17.281 E48.41099
G1 X80.019 Y17.827 E48.43792
G1 X78.723 Y16.531 E48.52827
G1 X78.176 Y16.531 E48.55520
G1 X80.019 Y18.374 E48.68363
G1 X80.019 Y18.920 E48.71055
G1 X77.630 Y16.531 E48.87706
G1 X77.084 Y16.531 E48.90399
G1 X80.019 Y19.466 E49.10858
G1 X80.019 Y20.012 E49.13550
G1 X76.538 Y16.531 E49.37817
G1 X75.992 Y16.531 E49.40510
G1 X80.019 Y20.558 E49.68584
G1 X80.019 Y21.105 E49.71277
G1 X75.445 Y16.531 E50.03159
G1 X74.899 Y16.531 E50.05852
G1 X80.019 Y21.651 E50.41542
G1 X80.019 Y22.197 E50.44235
G1 X74.353 Y16.531 E50.83733
G1 X73.807 Y16.531 E50.86426
G1 X80.019 Y22.743 E51.29732
G1 X80.019 Y23.290 E51.32425
G1 X73.260 Y16.531 E51.79539
G1 X72.714 Y16.531 E51.82232
G1 X80.019 Y23.836 E52.33154
G1 X80.019 Y24.382 E52.35846
G1 X72.168 Y16.531 E52.90576
G1 X71.622 Y16.531 E52.93269
G1 X80.019 Y24.928 E53.51807
G1 X80.019 Y25.475 E53.54499
G1 X71.075 Y16.531 E54.16845
G1 X70.529 Y16.531 E54.19538
G1 X80.019 Y26.021 E54.85691
G1 X80.019 Y26.567 E54.88384
G1 X69.983 Y16.531 E55.58345
G1 X69.437 Y16.531 E55.61038
G1 X80.019 Y27.113 E56.34807
G1 X80.019 Y27.659 E56.37500
G1 X68.891 Y16.531 E57.15077
G1 X68.344 Y16.531 E57.17770
G1 X80.019 Y28.206 E57.99155
G1 X80.019 Y28.752 E58.01848
G1 X67.798 Y16.531 E58.87041
G1 X67.252 Y16.531 E58.89733
G1 X80.019 Y29.298 E59.78734
G1 X80.019 Y29.844 E59.81427
G1 X66.706 Y16.531 E60.74236
G1 X66.159 Y16.531 E60.76929
G1 X80.019 Y30.391 E61.73545
G1 X80.019 Y30.937 E61.76238
G1 X65.613 Y16.531 E62.76663
G1 X65.067 Y16.531 E62.79355
G1 X80.019 Y31.483 E63.83588
G1 X80.019 Y32.029 E63.86280
G1 X64.521 Y16.531 E64.94321
G1 X63.975 Y16.531 E64.97013
G1 X80.019 Y32.575 E66.08862
G1 X80.019 Y33.122 E66.11554
G1 X63.428 Y16.531 E67.27211
G1 X62.882 Y16.531 E67.29903
G1 X80.019 Y33.668 E68.49368
G1 X80.019 Y34.214 E68.52060
G1 X62.336 Y16.531 E69.75332
G1 X61.790 Y16.531 E69.78025
G1 X80.019 Y34.760 E71.05105
G1 X80.019 Y35.307 E71.07797
G1 X61.243 Y16.531 E72.38685
G1 X60.697 Y16.531 E72.41378
G1 X80.019 Y35.853 E73.76074
G1 X80.019 Y36.399 E73.78766
G1 X60.151 Y16.531 E75.17270
G1 X59.605 Y16.531 E75.19963
G1 X80.019 Y36.945 E76.62274
G1 X80.019 Y37.491 E76.64967
G1 X59.058 Y16.531 E78.11086
G1 X58.512 Y16.531 E78.13779
G1 X80.019 Y38.038 E79.63706
G1 X80.019 Y38.584 E79.66399
G1 X57.966 Y16.531 E81.20134
G1 X57.420 Y16.531 E81.22827
G1 X80.019 Y39.130 E82.80370
G1 X80.019 Y39.676 E82.83062
G1 X56.874 Y16.531 E84.44413
G1 X56.327 Y16.531 E84.47106
G1 X80.019 Y40.223 E86.12265
G1 X80.019 Y40.769 E86.14958
G1 X55.781 Y16.531 E87.83924
G1 X55.235 Y16.531 E87.86617
G1 X80.019 Y41.315 E89.59392
G1 X80.019 Y41.861 E89.62084
G1 X54.689 Y16.531 E91.38667
G1 X54.142 Y16.531 E91.41360
G1 X80.019 Y42.408 E93.21750
G1 X80.019 Y42.954 E93.24443
G1 X53.596 Y16.531 E95.08641
G1 X53.050 Y16.531 E95.11334
G1 X80.019 Y43.500 E96.99340
G1 X80.019 Y44.046 E97.02033
G1 X52.504 Y16.531 E98.93847
G1 X51.958 Y16.531 E98.96540
G1 X80.019 Y44.592 E100.92162
G1 X80.019 Y45.139 E100.94854
G1 X51.411 Y16.531 E102.94284
G1 X50.865 Y16.531 E102.96977
G1 X80.019 Y45.685 E105.00215
G1 X80.019 Y46.231 E105.02907
G1 X50.319 Y16.531 E107.09953
G1 X49.773 Y16.531 E107.12646
G1 X80.019 Y46.777 E109.23500
G1 X80.019 Y47.324 E109.26192
G1 X49.226 Y16.531 E111.40854
G1 X48.680 Y16.531 E111.43546
G1 X80.019 Y47.870 E113.62016
G1 X80.019 Y48.416 E113.64708
G1 X48.134 Y16.531 E115.86986
G1 X47.588 Y16.531 E115.89678
G1 X80.019 Y48.962 E118.15764
G1 X80.019 Y49.508 E118.18456
G1 X47.042 Y16.531 E120.48350
G1 X46.495 Y16.531 E120.51042
G1 X80.019 Y50.055 E122.84743
G1 X80.019 Y50.601 E122.87436
G1 X45.949 Y16.531 E125.24945
G1 X45.403 Y16.531 E125.27637
G1 X80.019 Y51.147 E127.68954
G1 X80.019 Y51.693 E127.71647
G1 X44.857 Y16.531 E130.16772
G1 X44.310 Y16.531 E130.19464
G1 X80.019 Y52.240 E132.68397
G1 X79.662 Y52.429 E132.70389
G1 X43.764 Y16.531 E135.20640
G1 X43.218 Y16.531 E135.23333
G1 X79.115 Y52.429 E137.73584
G1 X78.569 Y52.429 E137.76276
G1 X42.672 Y16.531 E140.26527
G1 X42.125 Y16.531 E140.29220
G1 X78.023 Y52.429 E142.79471
G1 X77.477 Y52.429 E142.82163
G1 X41.579 Y16.531 E145.32415
G1 X41.033 Y16.531 E145.35107
G1 X76.930 Y52.429 E147.85358
G1 X76.384 Y52.429 E147.88051
G1 X40.487 Y16.531 E150.38302
G1 X39.941 Y16.531 E150.40994
G1 X75.838 Y52.429 E152.91245
G1 X75.292 Y52.429 E152.93938
G1 X39.394 Y16.531 E155.44189
G1 X38.848 Y16.531 E155.46882
G1 X74.746 Y52.429 E157.97133
G1 X74.199 Y52.429 E157.99825
G1 X38.302 Y16.531 E160.50076
G1 X37.756 Y16.531 E160.52769
G1 X73.653 Y52.429 E163.03020
G1 X73.107 Y52.429 E163.05712
G1 X37.209 Y16.531 E165.55963
G1 X36.663 Y16.531 E165.58656
G1 X72.561 Y52.429 E168.08907
G1 X72.014 Y52.429 E168.11600
G1 X36.117 Y16.531 E170.61851
G1 X35.571 Y16.531 E170.64543
G1 X71.468 Y52.429 E173.14794
G1 X70.922 Y52.429 E173.17487
G1 X35.025 Y16.531 E175.67738
G1 X34.478 Y16.531 E175.70430
G1 X70.376 Y52.429 E178.20681
G1 X69.830 Y52.429 E178.23374
G1 X34.121 Y16.720 E180.72306
G1 X34.121 Y17.267 E180.74999
G1 X69.283 Y52.429 E183.20123
G1 X68.737 Y52.429 E183.22815
G1 X34.121 Y17.813 E185.64132
G1 X34.121 Y18.359 E185.66824
G1 X68.191 Y52.429 E188.04332
G1 X67.645 Y52.429 E188.07025
G1 X34.121 Y18.905 E190.40725
G1 X34.121 Y19.452 E190.43418
G1 X67.098 Y52.429 E192.73311
G1 X66.552 Y52.429 E192.76003
G1 X34.121 Y19.998 E195.02088
G1 X34.121 Y20.544 E195.04780
G1 X66.006 Y52.429 E197.27057
G1 X65.460 Y52.429 E197.29750
G1 X34.121 Y21.090 E199.48219
G1 X34.121 Y21.637 E199.50911
G1 X64.913 Y52.429 E201.65572
G1 X64.367 Y52.429 E201.68265
G1 X34.121 Y22.183 E203.79118
G1 X34.121 Y22.729 E203.81810
G1 X63.821 Y52.429 E205.88855
G1 X63.275 Y52.429 E205.91548
G1 X34.121 Y23.275 E207.94785
G1 X34.121 Y23.821 E207.97478
G1 X62.729 Y52.429 E209.96907
G1 X62.182 Y52.429 E209.99600
G1 X34.121 Y24.368 E211.95221
G1 X34.121 Y24.914 E211.97914
G1 X61.636 Y52.429 E213.89727
G1 X61.090 Y52.429 E213.92420
G1 X34.121 Y25.460 E215.80426
G1 X34.121 Y26.006 E215.83118
G1 X60.544 Y52.429 E217.67316
G1 X59.997 Y52.429 E217.70009
G1 X34.121 Y26.553 E219.50398
G1 X34.121 Y27.099 E219.53091
G1 X59.451 Y52.429 E221.29673
G1 X58.905 Y52.429 E221.32366
G1 X34.121 Y27.645 E223.05140
G1 X34.121 Y28.191 E223.07832
G1 X58.359 Y52.429 E224.76798
G1 X57.813 Y52.429 E224.79491
G1 X34.121 Y28.737 E226.44649
G1 X34.121 Y29.284 E226.47342
G1 X57.266 Y52.429 E228.08692
G1 X56.720 Y52.429 E228.11385
G1 X34.121 Y29.830 E229.68927
G1 X34.121 Y30.376 E229.71620
G1 X56.174 Y52.429 E231.25355
G1 X55.628 Y52.429 E231.28047
G1 X34.121 Y30.922 E232.77974
G1 X34.121 Y31.469 E232.80666
G1 X55.081 Y52.429 E234.26785
G1 X54.535 Y52.429 E234.29478
G1 X34.121 Y32.015 E235.71789
G1 X34.121 Y32.561 E235.74481
G1 X53.989 Y52.429 E237.12984
G1 X53.443 Y52.429 E237.15677
G1 X34.121 Y33.107 E238.50372
G1 X34.121 Y33.654 E238.53065
G1 X52.896 Y52.429 E239.83952
G1 X52.350 Y52.429 E239.86644
G1 X34.121 Y34.200 E241.13724
G1 X34.121 Y34.746 E241.16416
G1 X51.804 Y52.429 E242.39688
G1 X51.258 Y52.429 E242.42380
G1 X34.121 Y35.292 E243.61844
G1 X34.121 Y35.838 E243.64536
G1 X50.712 Y52.429 E244.80192
G1 X50.165 Y52.429 E244.82885
G1 X34.121 Y36.385 E245.94732
G1 X34.121 Y36.931 E245.97425
G1 X49.619 Y52.429 E247.05465
G1 X49.073 Y52.429 E247.08157
G1 X34.121 Y37.477 E248.12389
G1 X34.121 Y38.023 E248.15082
G1 X48.527 Y52.429 E249.15506
G1 X47.980 Y52.429 E249.18198
G1 X34.121 Y38.570 E250.14815
G1 X34.121 Y39.116 E250.17507
G1 X47.434 Y52.429 E251.10315
G1 X46.888 Y52.429 E251.13008
G1 X34.121 Y39.662 E252.02008
G1 X34.121 Y40.208 E252.04701
G1 X46.342 Y52.429 E252.89893
G1 X45.796 Y52.429 E252.92586
G1 X34.121 Y40.754 E253.73970
G1 X34.121 Y41.301 E253.76663
G1 X45.249 Y52.429 E254.54240
G1 X44.703 Y52.429 E254.56932
G1 X34.121 Y41.847 E255.30701
G1 X34.121 Y42.393 E255.33394
G1 X44.157 Y52.429 E256.03354
G1 X43.611 Y52.429 E256.06047
G1 X34.121 Y42.939 E256.72200
G1 X34.121 Y43.486 E256.74893
G1 X43.064 Y52.429 E257.37238
G1 X42.518 Y52.429 E257.39930
G1 X34.121 Y44.032 E257.98467
G1 X34.121 Y44.578 E258.01160
G1 X41.972 Y52.429 E258.55889
G1 X41.426 Y52.429 E258.58582
G1 X34.121 Y45.124 E259.09503
G1 X34.121 Y45.670 E259.12196
G1 X40.879 Y52.429 E259.59309
G1 X40.333 Y52.429 E259.62002
G1 X34.121 Y46.217 E260.05307
G1 X34.121 Y46.763 E260.08000
G1 X39.787 Y52.429 E260.47498
G1 X39.241 Y52.429 E260.50190
G1 X34.121 Y47.309 E260.85880
G1 X34.121 Y47.855 E260.88573
G1 X38.695 Y52.429 E261.20454
G1 X38.148 Y52.429 E261.23147
G1 X34.121 Y48.402 E261.51221
G1 X34.121 Y48.948 E261.53914
G1 X37.602 Y52.429 E261.78180
G1 X37.056 Y52.429 E261.80872
G1 X34.121 Y49.494 E262.01330
G1 X34.121 Y50.040 E262.04023
G1 X36.510 Y52.429 E262.20673
G1 X35.963 Y52.429 E262.23366
G1 X34.121 Y50.587 E262.36208
G1 X34.121 Y51.133 E262.38901
G1 X35.417 Y52.429 E262.47935
G1 X34.871 Y52.429 E262.50628
G1 X34.121 Y51.679 E262.55855
G1 X34.121 Y52.225 E262.58547
G1 X34.325 Y52.429 E262.59966
G1 E256.59966 F1800.00000
G92 E0
G1 X104.566 Y30.929 F9000.000
G1 E6.00000 F1800.00000
G1 X104.566 Y38.031 E6.34956 F600.000
G1 X103.383 Y38.521 E6.41258
G1 X102.735 Y38.677 E6.44540
G1 X102.070 Y38.729 E6.47821
G1 X101.405 Y38.677 E6.51103
G1 X100.757 Y38.521 E6.54385
G1 X100.141 Y38.266 E6.57666
G1 X99.572 Y37.918 E6.60948
G1 X99.065 Y37.485 E6.64230
G1 X98.632 Y36.978 E6.67511
G1 X98.284 Y36.409 E6.70793
G1 X98.029 Y35.793 E6.74074
G1 X97.873 Y35.145 E6.77356
G1 X97.821 Y34.478 E6.80647
G1 X97.876 Y33.801 E6.83991
G1 X98.029 Y33.167 E6.87200
G1 X98.284 Y32.551 E6.90482
G1 X98.632 Y31.982 E6.93764
G1 X99.065 Y31.475 E6.97045
G1 X99.572 Y31.042 E7.00327
G1 X100.141 Y30.694 E7.03608
G1 X100.757 Y30.439 E7.06890
G1 X101.405 Y30.283 E7.10172
G1 X102.055 Y30.232 E7.13381
G1 X102.733 Y30.283 E7.16725
G1 X103.383 Y30.439 E7.20016
G1 X104.511 Y30.906 E7.26023
G1 X104.181 Y31.186 F9000.000
G1 X104.181 Y37.774 E7.58442 F600.000
G1 X103.264 Y38.153 E7.63327
G1 X102.674 Y38.295 E7.66310
G1 X102.070 Y38.343 E7.69293
G1 X101.466 Y38.295 E7.72276
G1 X100.876 Y38.153 E7.75259
G1 X100.316 Y37.922 E7.78242
G1 X99.800 Y37.605 E7.81225
G1 X99.339 Y37.211 E7.84208
G1 X98.945 Y36.750 E7.87191
G1 X98.628 Y36.234 E7.90174
G1 X98.397 Y35.674 E7.93157
G1 X98.255 Y35.084 E7.96139
G1 X98.207 Y34.479 E7.99128
G1 X98.258 Y33.862 E8.02173
G1 X98.397 Y33.286 E8.05087
G1 X98.628 Y32.726 E8.08070
G1 X98.945 Y32.210 E8.11053
G1 X99.339 Y31.749 E8.14036
G1 X99.800 Y31.355 E8.17019
G1 X100.316 Y31.038 E8.20002
G1 X100.876 Y30.807 E8.22985
G1 X101.466 Y30.665 E8.25968
G1 X102.056 Y30.619 E8.28882
G1 X102.673 Y30.665 E8.31927
G1 X103.264 Y30.807 E8.34916
G1 X104.125 Y31.163 E8.39506
G1 X103.795 Y31.444 F9000.000
G1 X103.795 Y37.516 E8.69389 F600.000
G1 X103.144 Y37.786 E8.72856
G1 X102.614 Y37.913 E8.75541
G1 X102.070 Y37.956 E8.78225
G1 X101.526 Y37.913 E8.80909
G1 X100.996 Y37.786 E8.83593
G1 X100.492 Y37.577 E8.86277
G1 X100.027 Y37.292 E8.88961
G1 X99.612 Y36.938 E8.91646
G1 X99.258 Y36.523 E8.94330
G1 X98.973 Y36.058 E8.97014
G1 X98.764 Y35.554 E8.99698
G1 X98.637 Y35.024 E9.02382
G1 X98.594 Y34.480 E9.05069
G1 X98.640 Y33.923 E9.07815
G1 X98.764 Y33.406 E9.10434
G1 X98.973 Y32.902 E9.13118
G1 X99.258 Y32.437 E9.15803
G1 X99.612 Y32.022 E9.18487
G1 X100.027 Y31.668 E9.21171
G1 X100.492 Y31.383 E9.23855
G1 X100.996 Y31.174 E9.26539
G1 X101.526 Y31.047 E9.29224
G1 X102.057 Y31.005 E9.31843
G1 X102.613 Y31.047 E9.34589
G1 X103.144 Y31.174 E9.37275
G1 X103.740 Y31.421 E9.40448
G1 X104.192 Y31.496 F9000.000
G1 X106.535 Y34.247 F9000.000
G1 X154.303 Y34.247 E11.75536 F600.000
G1 X154.303 Y34.713 E11.77825
G1 X106.535 Y34.713 E14.12913
G1 X105.836 Y36.399 E14.21897
G1 X105.506 Y36.938 E14.25008
G1 X105.337 Y36.890 E14.25870
G1 X105.337 Y32.070 E14.49596
G1 X105.506 Y32.022 E14.50458
G1 X105.836 Y32.561 E14.53569
G1 X106.512 Y34.192 E14.62258
G1 X106.793 Y33.862 F9000.000
G1 X154.688 Y33.862 E16.97976 F600.000
G1 X154.688 Y35.098 E17.04061
G1 X106.793 Y35.098 E19.39779
G1 X106.181 Y36.575 E19.47644
G1 X105.803 Y37.192 E19.51207
G1 X105.332 Y37.742 E19.54771
G1 X104.952 Y38.068 E19.57234
G1 X104.952 Y30.892 E19.92547
G1 X105.332 Y31.218 E19.95010
G1 X105.803 Y31.768 E19.98573
G1 X106.181 Y32.385 E20.02136
G1 X106.770 Y33.806 E20.09707
G1 X107.050 Y33.476 F9000.000
G1 X155.074 Y33.476 E22.46055 F600.000
G1 X155.074 Y35.484 E22.55935
G1 X107.050 Y35.484 E24.92283
G1 X106.526 Y36.750 E24.99029
G1 X106.116 Y37.419 E25.02891
G1 X105.606 Y38.016 E25.06753
G1 X105.009 Y38.526 E25.10615
G1 X104.340 Y38.936 E25.14477
G1 X103.615 Y39.236 E25.18339
G1 X102.852 Y39.419 E25.22201
G1 X102.070 Y39.481 E25.26062
G1 X101.288 Y39.419 E25.29924
G1 X100.525 Y39.236 E25.33786
G1 X99.800 Y38.936 E25.37648
G1 X99.131 Y38.526 E25.41510
G1 X98.534 Y38.016 E25.45372
G1 X98.024 Y37.419 E25.49234
G1 X97.614 Y36.750 E25.53095
G1 X97.314 Y36.025 E25.56957
G1 X97.131 Y35.262 E25.60819
G1 X97.069 Y34.480 E25.64681
G1 X97.131 Y33.698 E25.68543
G1 X97.314 Y32.935 E25.72405
G1 X97.614 Y32.210 E25.76267
G1 X98.024 Y31.541 E25.80129
G1 X98.534 Y30.944 E25.83991
G1 X99.131 Y30.434 E25.87853
G1 X99.800 Y30.024 E25.91715
G1 X100.525 Y29.724 E25.95576
G1 X101.286 Y29.541 E25.99429
G1 X102.092 Y29.481 E26.03405
G1 X102.852 Y29.541 E26.07161
G1 X103.615 Y29.724 E26.11022
G1 X104.340 Y30.024 E26.14884
G1 X105.009 Y30.434 E26.18746
G1 X105.606 Y30.944 E26.22608
G1 X106.116 Y31.541 E26.26470
G1 X106.526 Y32.210 E26.30332
G1 X107.027 Y33.421 E26.36783
G1 X107.308 Y35.869 F9000.000
G1 X106.870 Y36.926 E26.42411 F600.000
G1 X106.429 Y37.647 E26.46572
G1 X105.879 Y38.290 E26.50733
G1 X105.237 Y38.839 E26.54893
G1 X104.516 Y39.280 E26.59054
G1 X103.735 Y39.604 E26.63214
