; generated by Slic3r 1.2.9 on 2019-10-02 at 10:47:35

; external perimeters extrusion width = 0.40mm
; perimeters extrusion width = 0.62mm
; infill extrusion width = 0.33mm
; solid infill extrusion width = 0.62mm
; top infill extrusion width = 0.20mm
; support material extrusion width = 0.40mm

M106 S256; Turn on fan to 100% power
M104 S140; turn on extruder temperature at S value
M140 S60; turn on bed temperature at S value
G28; home all axes
M84; disable motors
G1 Z15 F15000; have Z move to 20mm at 15000 mm/min
M190 S55; turn on bed temperature at S value and wait
M140 S55; turn on bed temperature at S value (printing temperature)
M109 S200; turn on extruder temperature at S value and wait (printing temperature)
M104 S200; turn on extruder temperature at S value
G1 Z0 F12000; move Z back to home
G21 ; set units to millimeters
G90 ; use absolute coordinates
M82 ; use absolute distances for extrusion
G92 E0
M106 S255
;Layer change
G1 E-6.00000 F1800.00000
G92 E0
G1 Z0.300 F9000.000
G1 X77.658 Y26.054 F9000.000
G1 E6.00000 F1800.00000
G1 X78.408 Y24.242 E6.09653 F600.000
G1 X78.578 Y23.909 E6.11496
G1 X79.603 Y22.236 E6.21150
G1 X79.823 Y21.933 E6.22992
G1 X81.097 Y20.442 E6.32645
G1 X81.362 Y20.177 E6.34488
G1 X82.853 Y18.903 E6.44141
G1 X83.156 Y18.683 E6.45983
G1 X84.829 Y17.658 E6.55636
G1 X85.162 Y17.488 E6.57479
G1 X87.057 Y16.705 E6.67572
G1 X108.920 Y8.593 E7.82337
G1 X109.750 Y8.444 E7.86486
G1 X111.750 Y8.444 E7.96329
G1 X113.060 Y8.836 E8.03057
G1 X113.939 Y9.882 E8.09784 F600.000
G1 X114.136 Y10.830 E8.14547
G1 X114.136 Y50.830 E10.11407
G1 X113.744 Y52.140 E10.18135
G1 X112.698 Y53.019 E10.24862
G1 X111.750 Y53.216 E10.29625
G1 X109.750 Y53.216 E10.39468
G1 X108.920 Y53.067 E10.43618
G1 X86.974 Y44.922 E11.58822
G1 X85.162 Y44.172 E11.68475
G1 X84.829 Y44.002 E11.70318
G1 X83.156 Y42.977 E11.79971
G1 X82.853 Y42.757 E11.81814
G1 X81.362 Y41.483 E11.91467
G1 X81.097 Y41.218 E11.93309
G1 X79.823 Y39.727 E12.02963
G1 X79.603 Y39.424 E12.04805
G1 X78.578 Y37.751 E12.14458
G1 X78.408 Y37.418 E12.16301
G1 X77.658 Y35.606 E12.25954
G1 X77.542 Y35.250 E12.27797
G1 X77.084 Y33.342 E12.37450
G1 X77.026 Y32.973 E12.39292
G1 X76.872 Y31.017 E12.48946
G1 X76.872 Y30.643 E12.50788
G1 X77.026 Y28.687 E12.60442
G1 X77.084 Y28.318 E12.62284
G1 X77.542 Y26.410 E12.71937
G1 X77.639 Y26.111 E12.73484
G1 E6.73484 F1800.00000
G92 E0
G1 X94.882 Y35.948 F9000.000
G1 E6.00000 F1800.00000
G1 X94.882 Y40.712 E6.23445 F600.000
G1 X88.618 Y40.712 E6.54272
G1 X88.618 Y35.948 E6.77716
G1 X90.260 Y35.948 E6.85799
G1 X90.285 Y35.744 E6.86810
G1 X90.163 Y35.715 E6.87426
G1 X89.418 Y35.406 E6.91393
G1 X88.731 Y34.985 E6.95360
G1 X88.118 Y34.462 E6.99326
G1 X87.595 Y33.849 E7.03292
G1 X87.174 Y33.162 E7.07259
G1 X86.865 Y32.417 E7.11226
G1 X86.677 Y31.633 E7.15192
G1 X86.614 Y30.830 E7.19159
G1 X86.677 Y30.027 E7.23125
G1 X86.865 Y29.243 E7.27091
G1 X87.174 Y28.498 E7.31058
G1 X87.595 Y27.811 E7.35025
G1 X88.118 Y27.198 E7.38991
G1 X88.731 Y26.675 E7.42957
G1 X89.418 Y26.254 E7.46924
G1 X90.170 Y25.942 E7.50928
G1 X90.280 Y25.917 E7.51481
G1 X90.256 Y25.712 E7.52499
G1 X88.618 Y25.712 E7.60561
G1 X88.618 Y20.948 E7.84006
G1 X94.882 Y20.948 E8.14833
G1 X94.882 Y25.712 E8.38277
G1 X93.240 Y25.712 E8.46360
G1 X93.215 Y25.916 E8.47372
G1 X93.337 Y25.945 E8.47988
G1 X94.082 Y26.254 E8.51954
G1 X94.769 Y26.675 E8.55921
G1 X95.382 Y27.198 E8.59887
G1 X95.905 Y27.811 E8.63853
G1 X96.326 Y28.498 E8.67820
G1 X96.635 Y29.243 E8.71787
G1 X96.823 Y30.027 E8.75753
G1 X96.886 Y30.830 E8.79720
G1 X96.823 Y31.633 E8.83686
G1 X96.635 Y32.417 E8.87652
G1 X96.326 Y33.162 E8.91620
G1 X95.905 Y33.849 E8.95586
G1 X95.382 Y34.462 E8.99552
G1 X94.769 Y34.985 E9.03518
G1 X94.082 Y35.406 E9.07485
G1 X93.337 Y35.715 E9.11452
G1 X93.215 Y35.744 E9.12068
G1 X93.240 Y35.948 E9.13080
G1 X94.822 Y35.948 E9.20867
G1 X94.496 Y36.334 F9000.000
G1 X94.496 Y40.326 E9.40516 F600.000
G1 X89.004 Y40.326 E9.67547
G1 X89.004 Y36.334 E9.87196
G1 X94.436 Y36.334 E10.13932
G1 X94.111 Y36.719 F9000.000
G1 X94.111 Y39.941 E10.29785 F600.000
G1 X89.389 Y39.941 E10.53021
G1 X89.389 Y36.719 E10.68874
G1 X94.051 Y36.719 E10.91815
G1 X93.725 Y37.105 F9000.000
G1 X93.725 Y39.555 E11.03872 F600.000
G1 X89.775 Y39.555 E11.23312
G1 X89.775 Y37.105 E11.35370
G1 X93.665 Y37.105 E11.54515
G1 X94.125 Y37.105 F9000.000
G1 X93.218 Y35.347 F9000.000
G1 X92.488 Y35.522 E11.58209 F600.000
G1 X91.701 Y35.575 E11.62092
G1 X91.007 Y35.521 E11.65515
G1 X90.282 Y35.347 E11.69183
G1 X89.594 Y35.062 E11.72851
G1 X88.958 Y34.672 E11.76519
G1 X88.392 Y34.188 E11.80186
G1 X87.908 Y33.622 E11.83854
G1 X87.518 Y32.986 E11.87522
G1 X87.233 Y32.298 E11.91190
G1 X87.059 Y31.573 E11.94858
G1 X87.001 Y30.830 E11.98525
G1 X87.059 Y30.087 E12.02193
G1 X87.233 Y29.362 E12.05861
G1 X87.518 Y28.674 E12.09529
G1 X87.908 Y28.038 E12.13197
G1 X88.392 Y27.472 E12.16864
G1 X88.958 Y26.988 E12.20532
G1 X89.594 Y26.598 E12.24200
G1 X90.287 Y26.311 E12.27895
G1 X91.057 Y26.135 E12.31777
G1 X91.750 Y26.081 E12.35201 F600.000
G1 X92.493 Y26.139 E12.38868
G1 X93.218 Y26.313 E12.42536
G1 X93.906 Y26.598 E12.46204
G1 X94.542 Y26.988 E12.49872
G1 X95.108 Y27.472 E12.53540
G1 X95.592 Y28.038 E12.57207
G1 X95.982 Y28.674 E12.60875
G1 X96.267 Y29.362 E12.64543
G1 X96.441 Y30.087 E12.68211
G1 X96.499 Y30.830 E12.71878
G1 X96.441 Y31.573 E12.75546
G1 X96.267 Y32.298 E12.79214
G1 X95.982 Y32.986 E12.82882
G1 X95.592 Y33.622 E12.86550
G1 X95.108 Y34.188 E12.90217
G1 X94.542 Y34.672 E12.93885
G1 X93.906 Y35.062 E12.97553
G1 X93.273 Y35.324 E13.00926
G1 X93.098 Y34.979 F9000.000
G1 X92.429 Y35.140 E13.04311 F600.000
G1 X91.703 Y35.189 E13.07895
G1 X91.068 Y35.139 E13.11030
G1 X90.402 Y34.979 E13.14399
G1 X89.769 Y34.717 E13.17768
G1 X89.186 Y34.359 E13.21137
G1 X88.665 Y33.915 E13.24506
G1 X88.221 Y33.394 E13.27875
G1 X87.863 Y32.811 E13.31244
G1 X87.601 Y32.178 E13.34614
G1 X87.441 Y31.512 E13.37983
G1 X87.387 Y30.830 E13.41352
G1 X87.441 Y30.148 E13.44721
G1 X87.601 Y29.482 E13.48089
G1 X87.863 Y28.849 E13.51459
G1 X88.221 Y28.266 E13.54828
G1 X88.665 Y27.745 E13.58197
G1 X89.186 Y27.301 E13.61566
G1 X89.769 Y26.943 E13.64935
G1 X90.405 Y26.680 E13.68321
G1 X91.115 Y26.517 E13.71904
G1 X91.750 Y26.467 E13.75040 F600.000
G1 X92.432 Y26.521 E13.78408
G1 X93.098 Y26.681 E13.81778
G1 X93.731 Y26.943 E13.85147
G1 X94.314 Y27.301 E13.88516
G1 X94.835 Y27.745 E13.91885
G1 X95.279 Y28.266 E13.95254
G1 X95.637 Y28.849 E13.98623
G1 X95.899 Y29.482 E14.01992
G1 X96.059 Y30.148 E14.05361
G1 X96.113 Y30.830 E14.08730
G1 X96.059 Y31.512 E14.12099
G1 X95.899 Y32.178 E14.15468
G1 X95.637 Y32.811 E14.18837
G1 X95.279 Y33.394 E14.22206
G1 X94.835 Y33.915 E14.25575
G1 X94.314 Y34.359 E14.28944
G1 X93.731 Y34.717 E14.32313
G1 X93.153 Y34.956 E14.35387
G1 X92.979 Y34.611 F9000.000
G1 X92.371 Y34.757 E14.38464 F600.000
G1 X91.705 Y34.802 E14.41749
G1 X91.128 Y34.757 E14.44596
G1 X90.521 Y34.611 E14.47666
G1 X89.945 Y34.372 E14.50737
G1 X89.413 Y34.046 E14.53807
G1 X88.939 Y33.641 E14.56877
G1 X88.534 Y33.167 E14.59947
G1 X88.208 Y32.635 E14.63018
G1 X87.969 Y32.059 E14.66088
G1 X87.823 Y31.452 E14.69158
G1 X87.774 Y30.830 E14.72229
G1 X87.823 Y30.208 E14.75299
G1 X87.969 Y29.601 E14.78369
G1 X88.208 Y29.025 E14.81440
G1 X88.534 Y28.493 E14.84510
G1 X88.939 Y28.019 E14.87580
G1 X89.413 Y27.614 E14.90650
G1 X89.945 Y27.288 E14.93721
G1 X90.523 Y27.048 E14.96797
G1 X91.173 Y26.900 E15.00082
G1 X91.750 Y26.854 E15.02929 F600.000
G1 X92.372 Y26.903 E15.06000
G1 X92.979 Y27.049 E15.09070
G1 X93.555 Y27.288 E15.12140
G1 X94.087 Y27.614 E15.15211
G1 X94.561 Y28.019 E15.18281
G1 X94.966 Y28.493 E15.21351
G1 X95.292 Y29.025 E15.24422
G1 X95.531 Y29.601 E15.27492
G1 X95.677 Y30.208 E15.30562
G1 X95.726 Y30.830 E15.33633
G1 X95.677 Y31.452 E15.36703
G1 X95.531 Y32.059 E15.39773
G1 X95.292 Y32.635 E15.42844
G1 X94.966 Y33.167 E15.45914
G1 X94.561 Y33.641 E15.48984
G1 X94.087 Y34.046 E15.52054
G1 X93.555 Y34.372 E15.55125
G1 X93.034 Y34.588 E15.57900
G1 X92.885 Y35.000 F9000.000
G1 E9.57900 F1800.00000
G92 E0
G1 X94.496 Y25.326 F9000.000
G1 E6.00000 F1800.00000
G1 X89.004 Y25.326 E6.27031 F600.000
G1 X89.004 Y21.334 E6.46680
G1 X94.496 Y21.334 E6.73712
G1 X94.496 Y25.266 E6.93065
G1 X94.111 Y24.941 F9000.000
G1 X89.389 Y24.941 E7.16301 F600.000
G1 X89.389 Y21.719 E7.32154
G1 X94.111 Y21.719 E7.55390
G1 X94.111 Y24.881 E7.70948
G1 X93.725 Y24.555 F9000.000
G1 X89.775 Y24.555 E7.90388 F600.000
G1 X89.775 Y22.105 E8.02446
G1 X93.725 Y22.105 E8.21886
G1 X93.725 Y24.495 E8.33648
G1 X93.725 Y24.955 F9000.000
G1 X88.233 Y26.097 F9000.000
G1 X88.612 Y26.097 E8.35518 F600.000
G1 X88.660 Y26.266 E8.36380
G1 X88.504 Y26.362 E8.37283
G1 X87.845 Y26.925 E8.41547
G1 X87.282 Y27.584 E8.45812
G1 X86.829 Y28.323 E8.50078
G1 X86.497 Y29.123 E8.54344
G1 X86.295 Y29.966 E8.58609
G1 X86.227 Y30.830 E8.62874
G1 X86.295 Y31.694 E8.67139
G1 X86.497 Y32.537 E8.71404
G1 X86.829 Y33.337 E8.75670
G1 X87.282 Y34.076 E8.79935
G1 X87.845 Y34.735 E8.84200
G1 X88.504 Y35.298 E8.88465
G1 X88.660 Y35.394 E8.89367
G1 X88.612 Y35.563 E8.90229
G1 X88.233 Y35.563 E8.92099
G1 X88.233 Y40.948 E9.18604
G1 X86.880 Y40.388 E9.25809
G1 X85.445 Y39.508 E9.34093
G1 X84.165 Y38.415 E9.42378
G1 X83.072 Y37.135 E9.50662
G1 X82.192 Y35.700 E9.58946
G1 X81.548 Y34.145 E9.67230
G1 X81.155 Y32.508 E9.75515
G1 X81.023 Y30.830 E9.83799
G1 X81.155 Y29.152 E9.92083
G1 X81.548 Y27.515 E10.00367
G1 X82.192 Y25.960 E10.08651
G1 X83.072 Y24.525 E10.16936
G1 X84.165 Y23.245 E10.25220
G1 X85.445 Y22.152 E10.33504
G1 X86.880 Y21.272 E10.41788
G1 X88.233 Y20.712 E10.48993
G1 X88.233 Y26.037 E10.75203
G1 X95.267 Y26.097 F9000.000
G1 X95.267 Y20.563 E11.02443 F600.000
G1 X89.582 Y20.563 E11.30423
G1 X89.558 Y20.358 E11.31434
G1 X90.072 Y20.235 E11.34035
G1 X91.819 Y20.097 E11.42662
G1 X109.983 Y20.097 E12.32051
G1 X109.983 Y41.563 E13.37692
G1 X91.819 Y41.563 E14.27081
G1 X90.072 Y41.425 E14.35708
G1 X89.558 Y41.302 E14.38309
G1 X89.582 Y41.097 E14.39320
G1 X95.267 Y41.097 E14.67300
G1 X95.267 Y35.563 E14.94540
G1 X94.888 Y35.563 E14.96410
G1 X94.840 Y35.394 E14.97272
G1 X94.996 Y35.298 E14.98175
G1 X95.655 Y34.735 E15.02439
G1 X96.218 Y34.076 E15.06704
G1 X96.671 Y33.337 E15.10970
G1 X97.003 Y32.537 E15.15236
G1 X97.205 Y31.694 E15.19501
G1 X97.273 Y30.830 E15.23766
G1 X97.205 Y29.966 E15.28031
G1 X97.003 Y29.123 E15.32296
G1 X96.671 Y28.323 E15.36562
G1 X96.218 Y27.584 E15.40827
G1 X95.655 Y26.925 E15.45092
G1 X94.996 Y26.362 E15.49357
G1 X94.840 Y26.266 E15.50259
G1 X94.888 Y26.097 E15.51121
G1 X95.207 Y26.097 E15.52696
G1 X110.368 Y19.712 F9000.000
G1 X110.368 Y41.948 E16.62132 F600.000
G1 X91.804 Y41.948 E17.53494
G1 X90.011 Y41.807 E17.62345
G1 X88.316 Y41.400 E17.70928
G1 X86.704 Y40.733 E17.79511
G1 X85.217 Y39.821 E17.88094
G1 X83.891 Y38.689 E17.96677
G1 X82.759 Y37.363 E18.05260
G1 X81.847 Y35.876 E18.13843
G1 X81.180 Y34.264 E18.22426
G1 X80.773 Y32.569 E18.31009
G1 X80.636 Y30.830 E18.39592
G1 X80.773 Y29.091 E18.48175
G1 X81.180 Y27.396 E18.56758
G1 X81.847 Y25.784 E18.65341
G1 X82.759 Y24.297 E18.73924
G1 X83.891 Y22.971 E18.82507
G1 X85.217 Y21.839 E18.91090
G1 X86.704 Y20.927 E18.99672
G1 X88.316 Y20.260 E19.08255
G1 X90.011 Y19.853 E19.16838
G1 X91.804 Y19.712 E19.25689
G1 X110.308 Y19.712 E20.16756
G1 X110.754 Y19.326 F9000.000
G1 X110.754 Y42.334 E21.29988 F600.000
G1 X91.789 Y42.334 E22.23322
G1 X89.951 Y42.189 E22.32397
G1 X88.196 Y41.768 E22.41279
G1 X86.529 Y41.077 E22.50161
G1 X84.990 Y40.134 E22.59042
G1 X83.618 Y38.962 E22.67924
G1 X82.446 Y37.590 E22.76806
G1 X81.503 Y36.051 E22.85687
G1 X80.812 Y34.384 E22.94569
G1 X80.391 Y32.629 E23.03451
G1 X80.249 Y30.830 E23.12332
G1 X80.391 Y29.031 E23.21214
G1 X80.812 Y27.276 E23.30096
G1 X81.503 Y25.609 E23.38977
G1 X82.446 Y24.070 E23.47859
G1 X83.618 Y22.698 E23.56741
G1 X84.990 Y21.526 E23.65622
G1 X86.529 Y20.583 E23.74504
G1 X88.196 Y19.892 E23.83386
G1 X89.951 Y19.471 E23.92267
G1 X91.789 Y19.326 E24.01342
G1 X110.694 Y19.326 E24.94381
G1 X110.361 Y18.941 F9000.000
G1 X110.361 Y11.441 E25.31293 F600.000
G1 X111.139 Y11.441 E25.35125
G1 X111.139 Y50.219 E27.25975
G1 X110.361 Y50.219 E27.29808
G1 X110.361 Y42.719 E27.66719
G1 X91.774 Y42.719 E28.58194
G1 X89.890 Y42.571 E28.67492
G1 X88.077 Y42.136 E28.76673
G1 X86.353 Y41.422 E28.85853
G1 X84.763 Y40.447 E28.95034
G1 X83.344 Y39.236 E29.04214
G1 X82.133 Y37.817 E29.13394
G1 X81.158 Y36.227 E29.22575
G1 X80.444 Y34.503 E29.31755
G1 X80.009 Y32.690 E29.40936
G1 X79.863 Y30.830 E29.50116
G1 X80.009 Y28.970 E29.59296
G1 X80.444 Y27.157 E29.68477
G1 X81.158 Y25.433 E29.77657
G1 X82.133 Y23.843 E29.86838
G1 X83.344 Y22.424 E29.96018
G1 X84.763 Y21.213 E30.05198
G1 X86.353 Y20.238 E30.14379
G1 X88.077 Y19.524 E30.23559
G1 X89.890 Y19.089 E30.32740
G1 X91.774 Y18.941 E30.42038
G1 X110.301 Y18.941 E31.33217
G1 X109.975 Y18.555 F9000.000
G1 X109.975 Y11.055 E31.70129 F600.000
G1 X111.525 Y11.055 E31.77757
G1 X111.525 Y50.605 E33.72403
G1 X109.975 Y50.605 E33.80031
G1 X109.975 Y43.105 E34.16942
G1 X91.759 Y43.105 E35.06593
G1 X89.830 Y42.953 E35.16116
G1 X87.957 Y42.504 E35.25595
G1 X86.178 Y41.767 E35.35074
G1 X84.535 Y40.760 E35.44553
G1 X83.071 Y39.509 E35.54032
G1 X81.820 Y38.045 E35.63512
G1 X80.813 Y36.402 E35.72991
G1 X80.076 Y34.623 E35.82470
G1 X79.627 Y32.750 E35.91949
G1 X79.476 Y30.830 E36.01428
G1 X79.627 Y28.910 E36.10907
G1 X80.076 Y27.037 E36.20386
G1 X80.813 Y25.258 E36.29865
G1 X81.820 Y23.615 E36.39345
G1 X83.071 Y22.151 E36.48824
G1 X84.535 Y20.900 E36.58303
G1 X86.178 Y19.893 E36.67782
G1 X87.957 Y19.156 E36.77261
G1 X89.830 Y18.707 E36.86740
G1 X91.759 Y18.555 E36.96263
G1 X109.915 Y18.555 E37.85619
G1 X110.375 Y18.555 F9000.000
G1 X110.750 Y19.133 F9000.000
G1 X110.750 Y11.633 E38.65604 F600.000
G1 X109.699 Y20.585 F9000.000
G1 X109.495 Y20.381 E38.67024 F600.000
G1 X108.948 Y20.381 E38.69722
G1 X109.699 Y21.132 E38.74958
G1 X109.699 Y21.678 E38.77656
G1 X108.402 Y20.381 E38.86706
G1 X107.855 Y20.381 E38.89404
G1 X109.699 Y22.225 E39.02270
G1 X109.699 Y22.772 E39.04968
G1 X107.308 Y20.381 E39.21649
G1 X106.761 Y20.381 E39.24347
G1 X109.699 Y23.319 E39.44843
G1 X109.699 Y23.865 E39.47541
G1 X106.215 Y20.381 E39.71853
G1 X105.668 Y20.381 E39.74550
G1 X109.699 Y24.412 E40.02677
G1 X109.699 Y24.959 E40.05375
G1 X105.121 Y20.381 E40.37316
G1 X104.574 Y20.381 E40.40014
G1 X109.699 Y25.506 E40.75771
G1 X109.699 Y26.052 E40.78469
G1 X104.028 Y20.381 E41.18041
G1 X103.481 Y20.381 E41.20738
G1 X109.699 Y26.599 E41.64125
G1 X109.699 Y27.146 E41.66823
G1 X102.934 Y20.381 E42.14025
G1 X102.387 Y20.381 E42.16723
G1 X109.699 Y27.693 E42.67741
G1 X109.699 Y28.239 E42.70438
G1 X101.841 Y20.381 E43.25271
G1 X101.294 Y20.381 E43.27968
G1 X109.699 Y28.786 E43.86616
G1 X109.699 Y29.333 E43.89314
G1 X100.747 Y20.381 E44.51777
G1 X100.200 Y20.381 E44.54474
G1 X109.699 Y29.880 E45.20752
G1 X109.699 Y30.426 E45.23450
G1 X99.654 Y20.381 E45.93543
G1 X99.107 Y20.381 E45.96241
G1 X109.699 Y30.973 E46.70149
G1 X109.699 Y31.520 E46.72846
G1 X98.560 Y20.381 E47.50570
G1 X98.013 Y20.381 E47.53267
G1 X109.699 Y32.067 E48.34806
G1 X109.699 Y32.613 E48.37504
G1 X97.467 Y20.381 E49.22857
G1 X96.920 Y20.381 E49.25555
G1 X109.699 Y33.160 E50.14723
G1 X109.699 Y33.707 E50.17421
G1 X96.373 Y20.381 E51.10405
G1 X95.826 Y20.381 E51.13103
G1 X109.699 Y34.254 E52.09902
G1 X109.699 Y34.800 E52.12599
G1 X95.737 Y20.838 E53.10026
G1 X95.551 Y21.200 E53.12030
G1 X109.699 Y35.347 E54.10749
G1 X109.699 Y35.894 E54.13447
G1 X95.551 Y21.746 E55.12166
G1 X95.551 Y22.293 E55.14864
G1 X109.699 Y36.440 E56.13583
G1 X109.699 Y36.987 E56.16281
G1 X95.551 Y22.840 E57.15000
G1 X95.551 Y23.387 E57.17698
G1 X109.699 Y37.534 E58.16418
G1 X109.699 Y38.081 E58.19115
G1 X95.551 Y23.933 E59.17835
G1 X95.551 Y24.480 E59.20532
G1 X109.699 Y38.627 E60.19252
G1 X109.699 Y39.174 E60.21949
G1 X95.551 Y25.027 E61.20669
G1 X95.551 Y25.573 E61.23366
G1 X109.699 Y39.721 E62.22086
G1 X109.699 Y40.268 E62.24784
G1 X95.551 Y26.120 E63.23503
G1 X96.848 Y27.964 F9000.000
G1 X109.699 Y40.814 E64.13171 F600.000
G1 X109.616 Y41.279 E64.15498
